( PCB Contour )
( Generated by Rapid-PCB.com )
( Material Size)
( X= 160.000, Y= 100.000, Z= 1.580)
()
G00
G17
G21
G40
G49
G54
G80
G90
G94
G00 F3000 Z1.000
M03 S9000
G00 F3000 X126.798 Y-5.625
G00 F1500 Z0
G01 F600 Z-1.000
G01 F600 X126.128 Y-5.798
G01 F600 X125.777 Y-6.394
G01 F600 X125.950 Y-7.064
G01 F600 X126.546 Y-7.415
G01 F600 X127.216 Y-7.242
G01 F600 X127.567 Y-6.646
G01 F600 X127.394 Y-5.976
G01 F600 X126.798 Y-5.625
G00 F3000 Z1.000
G00 F3000 X95.748 Y-5.625
G00 F1500 Z0
G01 F600 Z-1.000
G01 F600 X95.078 Y-5.798
G01 F600 X94.727 Y-6.394
G01 F600 X94.900 Y-7.064
G01 F600 X95.496 Y-7.415
G01 F600 X96.166 Y-7.242
G01 F600 X96.517 Y-6.646
G01 F600 X96.344 Y-5.976
G01 F600 X95.748 Y-5.625
G00 F3000 Z1.000
G00 F3000 X107.748 Y-5.625
G00 F1500 Z0
G01 F600 Z-1.000
G01 F600 X107.078 Y-5.798
G01 F600 X106.727 Y-6.394
G01 F600 X106.900 Y-7.064
G01 F600 X107.496 Y-7.415
G01 F600 X108.166 Y-7.242
G01 F600 X108.517 Y-6.646
G01 F600 X108.344 Y-5.976
G01 F600 X107.748 Y-5.625
G00 F3000 Z1.000
G00 F3000 X114.798 Y-5.625
G00 F1500 Z0
G01 F600 Z-1.000
G01 F600 X114.128 Y-5.798
G01 F600 X113.777 Y-6.394
G01 F600 X113.950 Y-7.064
G01 F600 X114.546 Y-7.415
G01 F600 X115.216 Y-7.242
G01 F600 X115.567 Y-6.646
G01 F600 X115.394 Y-5.976
G01 F600 X114.798 Y-5.625
G00 F3000 Z1.000
G00 F3000 X88.698 Y-5.625
G00 F1500 Z0
G01 F600 Z-1.000
G01 F600 X88.028 Y-5.798
G01 F600 X87.677 Y-6.394
G01 F600 X87.850 Y-7.064
G01 F600 X88.446 Y-7.415
G01 F600 X89.116 Y-7.242
G01 F600 X89.467 Y-6.646
G01 F600 X89.294 Y-5.976
G01 F600 X88.698 Y-5.625
G00 F3000 Z1.000
G00 F3000 X76.698 Y-5.625
G00 F1500 Z0
G01 F600 Z-1.000
G01 F600 X76.028 Y-5.798
G01 F600 X75.677 Y-6.394
G01 F600 X75.850 Y-7.064
G01 F600 X76.446 Y-7.415
G01 F600 X77.116 Y-7.242
G01 F600 X77.467 Y-6.646
G01 F600 X77.294 Y-5.976
G01 F600 X76.698 Y-5.625
G00 F3000 Z1.000
G00 F3000 X57.648 Y-5.625
G00 F1500 Z0
G01 F600 Z-1.000
G01 F600 X56.978 Y-5.798
G01 F600 X56.627 Y-6.394
G01 F600 X56.800 Y-7.064
G01 F600 X57.396 Y-7.415
G01 F600 X58.066 Y-7.242
G01 F600 X58.417 Y-6.646
G01 F600 X58.244 Y-5.976
G01 F600 X57.648 Y-5.625
G00 F3000 Z1.000
G00 F3000 X69.648 Y-5.625
G00 F1500 Z0
G01 F600 Z-1.000
G01 F600 X68.978 Y-5.798
G01 F600 X68.627 Y-6.394
G01 F600 X68.800 Y-7.064
G01 F600 X69.396 Y-7.415
G01 F600 X70.066 Y-7.242
G01 F600 X70.417 Y-6.646
G01 F600 X70.244 Y-5.976
G01 F600 X69.648 Y-5.625
G00 F3000 Z1.000
G00 F3000 X39.126 Y-6.266
G00 F1500 Z0
G01 F600 Z-1.000
G01 F600 X38.950 Y-6.304
G01 F600 X38.786 Y-6.377
G01 F600 X38.641 Y-6.483
G01 F600 X38.520 Y-6.616
G01 F600 X38.431 Y-6.772
G01 F600 X38.375 Y-6.943
G01 F600 X38.356 Y-7.122
G01 F600 X38.375 Y-7.301
G01 F600 X38.431 Y-7.472
G01 F600 X38.520 Y-7.627
G01 F600 X38.641 Y-7.761
G01 F600 X38.786 Y-7.867
G01 F600 X38.950 Y-7.940
G01 F600 X39.126 Y-7.977
G01 F600 X39.306 Y-7.977
G01 F600 X39.482 Y-7.940
G01 F600 X39.646 Y-7.867
G01 F600 X39.792 Y-7.761
G01 F600 X39.912 Y-7.627
G01 F600 X40.002 Y-7.472
G01 F600 X40.058 Y-7.301
G01 F600 X40.076 Y-7.122
G01 F600 X40.058 Y-6.943
G01 F600 X40.002 Y-6.772
G01 F600 X39.912 Y-6.616
G01 F600 X39.792 Y-6.483
G01 F600 X39.646 Y-6.377
G01 F600 X39.482 Y-6.304
G01 F600 X39.306 Y-6.266
G01 F600 X39.126 Y-6.266
G00 F3000 Z1.000
G00 F3000 X35.626 Y-6.266
G00 F1500 Z0
G01 F600 Z-1.000
G01 F600 X35.450 Y-6.304
G01 F600 X35.286 Y-6.377
G01 F600 X35.141 Y-6.483
G01 F600 X35.020 Y-6.616
G01 F600 X34.931 Y-6.772
G01 F600 X34.875 Y-6.943
G01 F600 X34.856 Y-7.122
G01 F600 X34.875 Y-7.301
G01 F600 X34.931 Y-7.472
G01 F600 X35.020 Y-7.627
G01 F600 X35.141 Y-7.761
G01 F600 X35.286 Y-7.867
G01 F600 X35.450 Y-7.940
G01 F600 X35.626 Y-7.977
G01 F600 X35.806 Y-7.977
G01 F600 X35.982 Y-7.940
G01 F600 X36.146 Y-7.867
G01 F600 X36.292 Y-7.761
G01 F600 X36.412 Y-7.627
G01 F600 X36.502 Y-7.472
G01 F600 X36.558 Y-7.301
G01 F600 X36.576 Y-7.122
G01 F600 X36.558 Y-6.943
G01 F600 X36.502 Y-6.772
G01 F600 X36.412 Y-6.616
G01 F600 X36.292 Y-6.483
G01 F600 X36.146 Y-6.377
G01 F600 X35.982 Y-6.304
G01 F600 X35.806 Y-6.266
G01 F600 X35.626 Y-6.266
G00 F3000 Z1.000
G00 F3000 X30.236 Y-6.266
G00 F1500 Z0
G01 F600 Z-1.000
G01 F600 X30.060 Y-6.304
G01 F600 X29.896 Y-6.377
G01 F600 X29.751 Y-6.483
G01 F600 X29.630 Y-6.616
G01 F600 X29.541 Y-6.772
G01 F600 X29.485 Y-6.943
G01 F600 X29.466 Y-7.122
G01 F600 X29.485 Y-7.301
G01 F600 X29.541 Y-7.472
G01 F600 X29.630 Y-7.627
G01 F600 X29.751 Y-7.761
G01 F600 X29.896 Y-7.867
G01 F600 X30.060 Y-7.940
G01 F600 X30.236 Y-7.977
G01 F600 X30.416 Y-7.977
G01 F600 X30.592 Y-7.940
G01 F600 X30.756 Y-7.867
G01 F600 X30.902 Y-7.761
G01 F600 X31.022 Y-7.627
G01 F600 X31.112 Y-7.472
G01 F600 X31.168 Y-7.301
G01 F600 X31.186 Y-7.122
G01 F600 X31.168 Y-6.943
G01 F600 X31.112 Y-6.772
G01 F600 X31.022 Y-6.616
G01 F600 X30.902 Y-6.483
G01 F600 X30.756 Y-6.377
G01 F600 X30.592 Y-6.304
G01 F600 X30.416 Y-6.266
G01 F600 X30.236 Y-6.266
G00 F3000 Z1.000
G00 F3000 X26.736 Y-6.266
G00 F1500 Z0
G01 F600 Z-1.000
G01 F600 X26.560 Y-6.304
G01 F600 X26.396 Y-6.377
G01 F600 X26.251 Y-6.483
G01 F600 X26.130 Y-6.616
G01 F600 X26.041 Y-6.772
G01 F600 X25.985 Y-6.943
G01 F600 X25.966 Y-7.122
G01 F600 X25.985 Y-7.301
G01 F600 X26.041 Y-7.472
G01 F600 X26.130 Y-7.627
G01 F600 X26.251 Y-7.761
G01 F600 X26.396 Y-7.867
G01 F600 X26.560 Y-7.940
G01 F600 X26.736 Y-7.977
G01 F600 X26.916 Y-7.977
G01 F600 X27.092 Y-7.940
G01 F600 X27.256 Y-7.867
G01 F600 X27.402 Y-7.761
G01 F600 X27.522 Y-7.627
G01 F600 X27.612 Y-7.472
G01 F600 X27.668 Y-7.301
G01 F600 X27.686 Y-7.122
G01 F600 X27.668 Y-6.943
G01 F600 X27.612 Y-6.772
G01 F600 X27.522 Y-6.616
G01 F600 X27.402 Y-6.483
G01 F600 X27.256 Y-6.377
G01 F600 X27.092 Y-6.304
G01 F600 X26.916 Y-6.266
G01 F600 X26.736 Y-6.266
G00 F3000 Z1.000
G00 F3000 X48.037 Y-6.335
G00 F1500 Z0
G01 F600 Z-1.000
G01 F600 X47.861 Y-6.372
G01 F600 X47.697 Y-6.445
G01 F600 X47.551 Y-6.551
G01 F600 X47.431 Y-6.684
G01 F600 X47.341 Y-6.840
G01 F600 X47.286 Y-7.011
G01 F600 X47.267 Y-7.190
G01 F600 X47.286 Y-7.369
G01 F600 X47.341 Y-7.540
G01 F600 X47.431 Y-7.696
G01 F600 X47.551 Y-7.829
G01 F600 X47.697 Y-7.935
G01 F600 X47.861 Y-8.008
G01 F600 X48.037 Y-8.045
G01 F600 X48.217 Y-8.045
G01 F600 X48.393 Y-8.008
G01 F600 X48.557 Y-7.935
G01 F600 X48.702 Y-7.829
G01 F600 X48.823 Y-7.696
G01 F600 X48.913 Y-7.540
G01 F600 X48.968 Y-7.369
G01 F600 X48.987 Y-7.190
G01 F600 X48.968 Y-7.011
G01 F600 X48.913 Y-6.840
G01 F600 X48.823 Y-6.684
G01 F600 X48.702 Y-6.551
G01 F600 X48.557 Y-6.445
G01 F600 X48.393 Y-6.372
G01 F600 X48.217 Y-6.335
G01 F600 X48.037 Y-6.335
G00 F3000 Z1.000
G00 F3000 X44.537 Y-6.335
G00 F1500 Z0
G01 F600 Z-1.000
G01 F600 X44.361 Y-6.372
G01 F600 X44.197 Y-6.445
G01 F600 X44.051 Y-6.551
G01 F600 X43.931 Y-6.684
G01 F600 X43.841 Y-6.840
G01 F600 X43.786 Y-7.011
G01 F600 X43.767 Y-7.190
G01 F600 X43.786 Y-7.369
G01 F600 X43.841 Y-7.540
G01 F600 X43.931 Y-7.696
G01 F600 X44.051 Y-7.829
G01 F600 X44.197 Y-7.935
G01 F600 X44.361 Y-8.008
G01 F600 X44.537 Y-8.045
G01 F600 X44.717 Y-8.045
G01 F600 X44.893 Y-8.008
G01 F600 X45.057 Y-7.935
G01 F600 X45.202 Y-7.829
G01 F600 X45.323 Y-7.696
G01 F600 X45.413 Y-7.540
G01 F600 X45.468 Y-7.369
G01 F600 X45.487 Y-7.190
G01 F600 X45.468 Y-7.011
G01 F600 X45.413 Y-6.840
G01 F600 X45.323 Y-6.684
G01 F600 X45.202 Y-6.551
G01 F600 X45.057 Y-6.445
G01 F600 X44.893 Y-6.372
G01 F600 X44.717 Y-6.335
G01 F600 X44.537 Y-6.335
G00 F3000 Z1.000
G00 F3000 X21.367 Y-6.335
G00 F1500 Z0
G01 F600 Z-1.000
G01 F600 X21.191 Y-6.372
G01 F600 X21.027 Y-6.445
G01 F600 X20.881 Y-6.551
G01 F600 X20.761 Y-6.684
G01 F600 X20.671 Y-6.840
G01 F600 X20.616 Y-7.011
G01 F600 X20.597 Y-7.190
G01 F600 X20.616 Y-7.369
G01 F600 X20.671 Y-7.540
G01 F600 X20.761 Y-7.696
G01 F600 X20.881 Y-7.829
G01 F600 X21.027 Y-7.935
G01 F600 X21.191 Y-8.008
G01 F600 X21.367 Y-8.045
G01 F600 X21.547 Y-8.045
G01 F600 X21.723 Y-8.008
G01 F600 X21.887 Y-7.935
G01 F600 X22.032 Y-7.829
G01 F600 X22.153 Y-7.696
G01 F600 X22.243 Y-7.540
G01 F600 X22.298 Y-7.369
G01 F600 X22.317 Y-7.190
G01 F600 X22.298 Y-7.011
G01 F600 X22.243 Y-6.840
G01 F600 X22.153 Y-6.684
G01 F600 X22.032 Y-6.551
G01 F600 X21.887 Y-6.445
G01 F600 X21.723 Y-6.372
G01 F600 X21.547 Y-6.335
G01 F600 X21.367 Y-6.335
G00 F3000 Z1.000
G00 F3000 X17.867 Y-6.335
G00 F1500 Z0
G01 F600 Z-1.000
G01 F600 X17.691 Y-6.372
G01 F600 X17.527 Y-6.445
G01 F600 X17.381 Y-6.551
G01 F600 X17.261 Y-6.684
G01 F600 X17.171 Y-6.840
G01 F600 X17.116 Y-7.011
G01 F600 X17.097 Y-7.190
G01 F600 X17.116 Y-7.369
G01 F600 X17.171 Y-7.540
G01 F600 X17.261 Y-7.696
G01 F600 X17.381 Y-7.829
G01 F600 X17.527 Y-7.935
G01 F600 X17.691 Y-8.008
G01 F600 X17.867 Y-8.045
G01 F600 X18.047 Y-8.045
G01 F600 X18.223 Y-8.008
G01 F600 X18.387 Y-7.935
G01 F600 X18.532 Y-7.829
G01 F600 X18.653 Y-7.696
G01 F600 X18.743 Y-7.540
G01 F600 X18.798 Y-7.369
G01 F600 X18.817 Y-7.190
G01 F600 X18.798 Y-7.011
G01 F600 X18.743 Y-6.840
G01 F600 X18.653 Y-6.684
G01 F600 X18.532 Y-6.551
G01 F600 X18.387 Y-6.445
G01 F600 X18.223 Y-6.372
G01 F600 X18.047 Y-6.335
G01 F600 X17.867 Y-6.335
G00 F3000 Z1.000
G00 F3000 X15.904 Y-12.284
G00 F1500 Z0
G01 F600 Z-1.000
G01 F600 X15.870 Y-12.288
G01 F600 X15.840 Y-12.305
G01 F600 X13.298 Y-14.847
G01 F600 X13.278 Y-14.875
G01 F600 X13.271 Y-14.909
G01 F600 X13.271 Y-42.216
G01 F600 X13.278 Y-42.250
G01 F600 X13.298 Y-42.278
G01 F600 X16.475 Y-45.455
G01 F600 X16.522 Y-45.476
G01 F600 X23.478 Y-45.476
G01 F600 X23.483 Y-45.528
G01 F600 X23.526 Y-45.660
G01 F600 X23.596 Y-45.780
G01 F600 X23.689 Y-45.884
G01 F600 X23.801 Y-45.965
G01 F600 X23.928 Y-46.022
G01 F600 X24.064 Y-46.050
G01 F600 X25.510 Y-46.050
G01 F600 X25.646 Y-46.022
G01 F600 X25.773 Y-45.965
G01 F600 X25.885 Y-45.884
G01 F600 X25.978 Y-45.780
G01 F600 X26.048 Y-45.660
G01 F600 X26.091 Y-45.528
G01 F600 X26.105 Y-45.390
G01 F600 X26.091 Y-45.252
G01 F600 X26.048 Y-45.120
G01 F600 X25.978 Y-45.000
G01 F600 X25.885 Y-44.897
G01 F600 X25.773 Y-44.815
G01 F600 X25.646 Y-44.758
G01 F600 X25.510 Y-44.730
G01 F600 X24.064 Y-44.730
G01 F600 X23.928 Y-44.758
G01 F600 X23.801 Y-44.815
G01 F600 X23.689 Y-44.897
G01 F600 X23.596 Y-45.000
G01 F600 X23.526 Y-45.120
G01 F600 X23.483 Y-45.252
G01 F600 X23.478 Y-45.304
G01 F600 X16.568 Y-45.304
G01 F600 X13.443 Y-42.183
G01 F600 X13.441 Y-14.947
G01 F600 X15.932 Y-12.456
G01 F600 X111.461 Y-12.456
G01 F600 X114.586 Y-15.581
G01 F600 X114.586 Y-17.880
G01 F600 X114.128 Y-17.998
G01 F600 X113.777 Y-18.594
G01 F600 X113.950 Y-19.264
G01 F600 X114.546 Y-19.615
G01 F600 X114.586 Y-19.605
G01 F600 X114.586 Y-34.311
G01 F600 X114.593 Y-34.345
G01 F600 X114.613 Y-34.373
G01 F600 X115.535 Y-35.295
G01 F600 X115.582 Y-35.316
G01 F600 X118.461 Y-35.316
G01 F600 X118.473 Y-35.428
G01 F600 X118.534 Y-35.616
G01 F600 X118.634 Y-35.788
G01 F600 X118.766 Y-35.936
G01 F600 X118.927 Y-36.053
G01 F600 X119.108 Y-36.133
G01 F600 X119.303 Y-36.175
G01 F600 X119.501 Y-36.175
G01 F600 X119.695 Y-36.133
G01 F600 X119.877 Y-36.053
G01 F600 X120.038 Y-35.936
G01 F600 X120.170 Y-35.788
G01 F600 X120.270 Y-35.616
G01 F600 X120.331 Y-35.428
G01 F600 X120.352 Y-35.230
G01 F600 X120.331 Y-35.032
G01 F600 X120.270 Y-34.844
G01 F600 X120.170 Y-34.672
G01 F600 X120.038 Y-34.524
G01 F600 X119.877 Y-34.407
G01 F600 X119.695 Y-34.327
G01 F600 X119.501 Y-34.285
G01 F600 X119.303 Y-34.285
G01 F600 X119.108 Y-34.327
G01 F600 X118.927 Y-34.407
G01 F600 X118.766 Y-34.524
G01 F600 X118.634 Y-34.672
G01 F600 X118.534 Y-34.844
G01 F600 X118.473 Y-35.032
G01 F600 X118.461 Y-35.144
G01 F600 X115.628 Y-35.144
G01 F600 X114.758 Y-34.278
G01 F600 X114.757 Y-26.464
G01 F600 X114.762 Y-26.516
G01 F600 X114.817 Y-26.685
G01 F600 X114.906 Y-26.839
G01 F600 X115.024 Y-26.970
G01 F600 X115.168 Y-27.075
G01 F600 X115.330 Y-27.147
G01 F600 X115.503 Y-27.184
G01 F600 X115.681 Y-27.184
G01 F600 X115.854 Y-27.147
G01 F600 X116.016 Y-27.075
G01 F600 X116.160 Y-26.970
G01 F600 X116.278 Y-26.839
G01 F600 X116.367 Y-26.685
G01 F600 X116.422 Y-26.516
G01 F600 X116.440 Y-26.340
G01 F600 X116.422 Y-26.164
G01 F600 X116.367 Y-25.995
G01 F600 X116.278 Y-25.841
G01 F600 X116.160 Y-25.710
G01 F600 X116.016 Y-25.605
G01 F600 X115.854 Y-25.533
G01 F600 X115.681 Y-25.496
G01 F600 X115.503 Y-25.496
G01 F600 X115.330 Y-25.533
G01 F600 X115.168 Y-25.605
G01 F600 X115.057 Y-25.686
G01 F600 X114.758 Y-25.388
G01 F600 X114.757 Y-19.561
G01 F600 X115.216 Y-19.442
G01 F600 X115.567 Y-18.846
G01 F600 X115.394 Y-18.176
G01 F600 X114.798 Y-17.825
G01 F600 X114.758 Y-17.835
G01 F600 X114.757 Y-15.527
G01 F600 X114.731 Y-15.482
G01 F600 X111.566 Y-12.318
G01 F600 X111.540 Y-12.295
G01 F600 X111.507 Y-12.284
G01 F600 X15.904 Y-12.284
G00 F3000 Z1.000
G00 F3000 X16.539 Y-13.554
G00 F1500 Z0
G01 F600 Z-1.000
G01 F600 X16.505 Y-13.558
G01 F600 X16.475 Y-13.575
G01 F600 X14.568 Y-15.482
G01 F600 X14.548 Y-15.510
G01 F600 X14.541 Y-15.544
G01 F600 X14.541 Y-39.676
G01 F600 X14.548 Y-39.710
G01 F600 X14.568 Y-39.738
G01 F600 X17.745 Y-42.915
G01 F600 X17.792 Y-42.936
G01 F600 X23.478 Y-42.936
G01 F600 X23.483 Y-42.988
G01 F600 X23.526 Y-43.120
G01 F600 X23.596 Y-43.240
G01 F600 X23.689 Y-43.343
G01 F600 X23.801 Y-43.425
G01 F600 X23.928 Y-43.482
G01 F600 X24.064 Y-43.510
G01 F600 X25.510 Y-43.510
G01 F600 X25.646 Y-43.482
G01 F600 X25.773 Y-43.425
G01 F600 X25.885 Y-43.343
G01 F600 X25.978 Y-43.240
G01 F600 X26.048 Y-43.120
G01 F600 X26.091 Y-42.988
G01 F600 X26.105 Y-42.850
G01 F600 X26.091 Y-42.712
G01 F600 X26.048 Y-42.580
G01 F600 X25.978 Y-42.460
G01 F600 X25.885 Y-42.357
G01 F600 X25.773 Y-42.275
G01 F600 X25.646 Y-42.218
G01 F600 X25.510 Y-42.190
G01 F600 X24.064 Y-42.190
G01 F600 X23.928 Y-42.218
G01 F600 X23.801 Y-42.275
G01 F600 X23.689 Y-42.357
G01 F600 X23.596 Y-42.460
G01 F600 X23.526 Y-42.580
G01 F600 X23.483 Y-42.712
G01 F600 X23.478 Y-42.764
G01 F600 X17.838 Y-42.764
G01 F600 X14.713 Y-39.643
G01 F600 X14.711 Y-15.582
G01 F600 X16.567 Y-13.726
G01 F600 X94.316 Y-13.726
G01 F600 X95.536 Y-14.946
G01 F600 X95.536 Y-17.880
G01 F600 X95.078 Y-17.998
G01 F600 X94.727 Y-18.594
G01 F600 X94.900 Y-19.264
G01 F600 X95.496 Y-19.615
G01 F600 X95.536 Y-19.605
G01 F600 X95.536 Y-34.311
G01 F600 X95.543 Y-34.345
G01 F600 X95.563 Y-34.373
G01 F600 X96.485 Y-35.295
G01 F600 X96.532 Y-35.316
G01 F600 X99.411 Y-35.316
G01 F600 X99.423 Y-35.428
G01 F600 X99.484 Y-35.616
G01 F600 X99.584 Y-35.788
G01 F600 X99.716 Y-35.936
G01 F600 X99.877 Y-36.053
G01 F600 X100.058 Y-36.133
G01 F600 X100.253 Y-36.175
G01 F600 X100.451 Y-36.175
G01 F600 X100.645 Y-36.133
G01 F600 X100.827 Y-36.053
G01 F600 X100.988 Y-35.936
G01 F600 X101.120 Y-35.788
G01 F600 X101.220 Y-35.616
G01 F600 X101.281 Y-35.428
G01 F600 X101.302 Y-35.230
G01 F600 X101.281 Y-35.032
G01 F600 X101.220 Y-34.844
G01 F600 X101.120 Y-34.672
G01 F600 X100.988 Y-34.524
G01 F600 X100.827 Y-34.407
G01 F600 X100.645 Y-34.327
G01 F600 X100.451 Y-34.285
G01 F600 X100.253 Y-34.285
G01 F600 X100.058 Y-34.327
G01 F600 X99.877 Y-34.407
G01 F600 X99.716 Y-34.524
G01 F600 X99.584 Y-34.672
G01 F600 X99.484 Y-34.844
G01 F600 X99.423 Y-35.032
G01 F600 X99.411 Y-35.144
G01 F600 X96.578 Y-35.144
G01 F600 X95.708 Y-34.278
G01 F600 X95.707 Y-26.464
G01 F600 X95.712 Y-26.516
G01 F600 X95.767 Y-26.685
G01 F600 X95.856 Y-26.839
G01 F600 X95.974 Y-26.970
G01 F600 X96.118 Y-27.075
G01 F600 X96.280 Y-27.147
G01 F600 X96.453 Y-27.184
G01 F600 X96.631 Y-27.184
G01 F600 X96.804 Y-27.147
G01 F600 X96.966 Y-27.075
G01 F600 X97.110 Y-26.970
G01 F600 X97.228 Y-26.839
G01 F600 X97.317 Y-26.685
G01 F600 X97.372 Y-26.516
G01 F600 X97.390 Y-26.340
G01 F600 X97.372 Y-26.164
G01 F600 X97.317 Y-25.995
G01 F600 X97.228 Y-25.841
G01 F600 X97.110 Y-25.710
G01 F600 X96.966 Y-25.605
G01 F600 X96.804 Y-25.533
G01 F600 X96.631 Y-25.496
G01 F600 X96.453 Y-25.496
G01 F600 X96.280 Y-25.533
G01 F600 X96.118 Y-25.605
G01 F600 X96.007 Y-25.686
G01 F600 X95.708 Y-25.388
G01 F600 X95.708 Y-19.560
G01 F600 X96.166 Y-19.442
G01 F600 X96.517 Y-18.846
G01 F600 X96.344 Y-18.176
G01 F600 X95.748 Y-17.825
G01 F600 X95.708 Y-17.835
G01 F600 X95.707 Y-14.892
G01 F600 X95.681 Y-14.847
G01 F600 X94.420 Y-13.588
G01 F600 X94.395 Y-13.565
G01 F600 X94.362 Y-13.554
G01 F600 X16.539 Y-13.554
G00 F3000 Z1.000
G00 F3000 X17.174 Y-14.824
G00 F1500 Z0
G01 F600 Z-1.000
G01 F600 X17.140 Y-14.828
G01 F600 X17.110 Y-14.845
G01 F600 X15.838 Y-16.117
G01 F600 X15.818 Y-16.145
G01 F600 X15.811 Y-16.179
G01 F600 X15.811 Y-37.771
G01 F600 X15.818 Y-37.805
G01 F600 X15.838 Y-37.833
G01 F600 X18.380 Y-40.375
G01 F600 X18.427 Y-40.396
G01 F600 X23.478 Y-40.396
G01 F600 X23.483 Y-40.448
G01 F600 X23.526 Y-40.580
G01 F600 X23.596 Y-40.700
G01 F600 X23.689 Y-40.803
G01 F600 X23.801 Y-40.885
G01 F600 X23.928 Y-40.942
G01 F600 X24.064 Y-40.970
G01 F600 X25.510 Y-40.970
G01 F600 X25.646 Y-40.942
G01 F600 X25.773 Y-40.885
G01 F600 X25.885 Y-40.803
G01 F600 X25.978 Y-40.700
G01 F600 X26.048 Y-40.580
G01 F600 X26.091 Y-40.448
G01 F600 X26.105 Y-40.310
G01 F600 X26.091 Y-40.172
G01 F600 X26.048 Y-40.040
G01 F600 X25.978 Y-39.920
G01 F600 X25.885 Y-39.817
G01 F600 X25.773 Y-39.735
G01 F600 X25.646 Y-39.678
G01 F600 X25.510 Y-39.650
G01 F600 X24.064 Y-39.650
G01 F600 X23.928 Y-39.678
G01 F600 X23.801 Y-39.735
G01 F600 X23.689 Y-39.817
G01 F600 X23.596 Y-39.920
G01 F600 X23.526 Y-40.040
G01 F600 X23.483 Y-40.172
G01 F600 X23.478 Y-40.224
G01 F600 X18.473 Y-40.224
G01 F600 X15.983 Y-37.738
G01 F600 X15.981 Y-16.217
G01 F600 X17.202 Y-14.996
G01 F600 X74.631 Y-14.996
G01 F600 X76.486 Y-16.851
G01 F600 X76.486 Y-17.880
G01 F600 X76.028 Y-17.998
G01 F600 X75.677 Y-18.594
G01 F600 X75.850 Y-19.264
G01 F600 X76.446 Y-19.615
G01 F600 X76.486 Y-19.605
G01 F600 X76.486 Y-34.311
G01 F600 X76.493 Y-34.345
G01 F600 X76.513 Y-34.373
G01 F600 X77.435 Y-35.295
G01 F600 X77.482 Y-35.316
G01 F600 X80.361 Y-35.316
G01 F600 X80.373 Y-35.428
G01 F600 X80.434 Y-35.616
G01 F600 X80.534 Y-35.788
G01 F600 X80.666 Y-35.936
G01 F600 X80.827 Y-36.053
G01 F600 X81.008 Y-36.133
G01 F600 X81.203 Y-36.175
G01 F600 X81.401 Y-36.175
G01 F600 X81.595 Y-36.133
G01 F600 X81.777 Y-36.053
G01 F600 X81.938 Y-35.936
G01 F600 X82.070 Y-35.788
G01 F600 X82.170 Y-35.616
G01 F600 X82.231 Y-35.428
G01 F600 X82.252 Y-35.230
G01 F600 X82.231 Y-35.032
G01 F600 X82.170 Y-34.844
G01 F600 X82.070 Y-34.672
G01 F600 X81.938 Y-34.524
G01 F600 X81.777 Y-34.407
G01 F600 X81.595 Y-34.327
G01 F600 X81.401 Y-34.285
G01 F600 X81.203 Y-34.285
G01 F600 X81.008 Y-34.327
G01 F600 X80.827 Y-34.407
G01 F600 X80.666 Y-34.524
G01 F600 X80.534 Y-34.672
G01 F600 X80.434 Y-34.844
G01 F600 X80.373 Y-35.032
G01 F600 X80.361 Y-35.144
G01 F600 X77.528 Y-35.144
G01 F600 X76.658 Y-34.278
G01 F600 X76.657 Y-26.464
G01 F600 X76.662 Y-26.516
G01 F600 X76.717 Y-26.685
G01 F600 X76.806 Y-26.839
G01 F600 X76.924 Y-26.970
G01 F600 X77.068 Y-27.075
G01 F600 X77.230 Y-27.147
G01 F600 X77.403 Y-27.184
G01 F600 X77.581 Y-27.184
G01 F600 X77.754 Y-27.147
G01 F600 X77.916 Y-27.075
G01 F600 X78.059 Y-26.970
G01 F600 X78.178 Y-26.839
G01 F600 X78.267 Y-26.685
G01 F600 X78.322 Y-26.516
G01 F600 X78.340 Y-26.340
G01 F600 X78.322 Y-26.164
G01 F600 X78.267 Y-25.995
G01 F600 X78.178 Y-25.841
G01 F600 X78.059 Y-25.710
G01 F600 X77.916 Y-25.605
G01 F600 X77.754 Y-25.533
G01 F600 X77.581 Y-25.496
G01 F600 X77.403 Y-25.496
G01 F600 X77.230 Y-25.533
G01 F600 X77.068 Y-25.605
G01 F600 X76.957 Y-25.686
G01 F600 X76.658 Y-25.388
G01 F600 X76.658 Y-19.560
G01 F600 X77.116 Y-19.442
G01 F600 X77.467 Y-18.846
G01 F600 X77.294 Y-18.176
G01 F600 X76.698 Y-17.825
G01 F600 X76.657 Y-17.835
G01 F600 X76.657 Y-16.797
G01 F600 X76.631 Y-16.752	
G01 F600 X74.736 Y-14.858
G01 F600 X74.710 Y-14.835
G01 F600 X74.677 Y-14.824
G01 F600 X17.174 Y-14.824
G00 F3000 Z1.000
G00 F3000 X18.444 Y-16.094
G00 F1500 Z0
G01 F600 Z-1.000
G01 F600 X18.410 Y-16.098
G01 F600 X18.380 Y-16.115
G01 F600 X17.108 Y-17.387
G01 F600 X17.088 Y-17.415
G01 F600 X17.081 Y-17.449
G01 F600 X17.081 Y-35.866
G01 F600 X17.088 Y-35.900
G01 F600 X17.108 Y-35.928
G01 F600 X19.015 Y-37.835
G01 F600 X19.062 Y-37.856
G01 F600 X23.478 Y-37.856
G01 F600 X23.483 Y-37.908
G01 F600 X23.526 Y-38.040
G01 F600 X23.596 Y-38.160
G01 F600 X23.689 Y-38.264
G01 F600 X23.801 Y-38.345
G01 F600 X23.928 Y-38.402
G01 F600 X24.064 Y-38.430
G01 F600 X25.510 Y-38.430
G01 F600 X25.646 Y-38.402
G01 F600 X25.773 Y-38.345
G01 F600 X25.885 Y-38.264
G01 F600 X25.978 Y-38.160
G01 F600 X26.048 Y-38.040
G01 F600 X26.091 Y-37.908
G01 F600 X26.105 Y-37.770
G01 F600 X26.091 Y-37.632
G01 F600 X26.048 Y-37.500
G01 F600 X25.978 Y-37.380
G01 F600 X25.885 Y-37.276
G01 F600 X25.773 Y-37.195
G01 F600 X25.646 Y-37.138
G01 F600 X25.510 Y-37.110
G01 F600 X24.064 Y-37.110
G01 F600 X23.928 Y-37.138
G01 F600 X23.801 Y-37.195
G01 F600 X23.689 Y-37.276
G01 F600 X23.596 Y-37.380
G01 F600 X23.526 Y-37.500
G01 F600 X23.483 Y-37.632
G01 F600 X23.478 Y-37.684
G01 F600 X19.108 Y-37.684
G01 F600 X17.253 Y-35.833
G01 F600 X17.251 Y-17.487
G01 F600 X18.472 Y-16.266
G01 F600 X54.946 Y-16.266
G01 F600 X56.867 Y-18.187
G01 F600 X56.627 Y-18.594
G01 F600 X56.800 Y-19.264
G01 F600 X57.086 Y-19.432
G01 F600 X57.086 Y-34.596
G01 F600 X57.093 Y-34.630
G01 F600 X57.113 Y-34.658
G01 F600 X57.750 Y-35.295
G01 F600 X57.797 Y-35.316
G01 F600 X61.311 Y-35.316
G01 F600 X61.323 Y-35.428
G01 F600 X61.384 Y-35.616
G01 F600 X61.484 Y-35.788
G01 F600 X61.616 Y-35.936
G01 F600 X61.777 Y-36.053
G01 F600 X61.958 Y-36.133
G01 F600 X62.153 Y-36.175
G01 F600 X62.351 Y-36.175
G01 F600 X62.545 Y-36.133
G01 F600 X62.727 Y-36.053
G01 F600 X62.888 Y-35.936
G01 F600 X63.020 Y-35.788
G01 F600 X63.120 Y-35.616
G01 F600 X63.181 Y-35.428
G01 F600 X63.202 Y-35.230
G01 F600 X63.181 Y-35.032
G01 F600 X63.120 Y-34.844
G01 F600 X63.020 Y-34.672
G01 F600 X62.888 Y-34.524
G01 F600 X62.727 Y-34.407
G01 F600 X62.545 Y-34.327
G01 F600 X62.351 Y-34.285
G01 F600 X62.153 Y-34.285
G01 F600 X61.958 Y-34.327
G01 F600 X61.777 Y-34.407
G01 F600 X61.616 Y-34.524
G01 F600 X61.484 Y-34.672
G01 F600 X61.384 Y-34.844
G01 F600 X61.323 Y-35.032
G01 F600 X61.311 Y-35.144
G01 F600 X57.843 Y-35.144
G01 F600 X57.258 Y-34.563
G01 F600 X57.258 Y-26.038
G01 F600 X57.653 Y-26.038
G01 F600 X57.612 Y-26.164
G01 F600 X57.594 Y-26.340
G01 F600 X57.612 Y-26.516
G01 F600 X57.667 Y-26.685
G01 F600 X57.756 Y-26.839
G01 F600 X57.874 Y-26.970
G01 F600 X58.018 Y-27.075
G01 F600 X58.180 Y-27.147
G01 F600 X58.353 Y-27.184
G01 F600 X58.531 Y-27.184
G01 F600 X58.704 Y-27.147
G01 F600 X58.866 Y-27.075
G01 F600 X59.010 Y-26.970
G01 F600 X59.128 Y-26.839
G01 F600 X59.217 Y-26.685
G01 F600 X59.272 Y-26.516
G01 F600 X59.290 Y-26.340
G01 F600 X59.272 Y-26.164
G01 F600 X59.217 Y-25.995
G01 F600 X59.128 Y-25.841
G01 F600 X59.010 Y-25.710
G01 F600 X58.866 Y-25.605
G01 F600 X58.704 Y-25.533
G01 F600 X58.531 Y-25.496
G01 F600 X58.353 Y-25.496
G01 F600 X58.180 Y-25.533
G01 F600 X58.018 Y-25.605
G01 F600 X57.874 Y-25.710
G01 F600 X57.756 Y-25.841
G01 F600 X57.741 Y-25.867
G01 F600 X57.258 Y-25.867
G01 F600 X57.257 Y-19.533
G01 F600 X57.396 Y-19.615
G01 F600 X58.066 Y-19.442
G01 F600 X58.417 Y-18.846
G01 F600 X58.244 Y-18.176
G01 F600 X57.648 Y-17.825
G01 F600 X56.978 Y-17.998
G01 F600 X56.957 Y-18.034
G01 F600 X55.050 Y-16.128
G01 F600 X55.025 Y-16.105
G01 F600 X54.992 Y-16.094
G01 F600 X18.444 Y-16.094
G00 F3000 Z1.000
G00 F3000 X69.648 Y-17.825
G00 F1500 Z0
G01 F600 Z-1.000
G01 F600 X68.978 Y-17.998
G01 F600 X68.627 Y-18.594
G01 F600 X68.800 Y-19.264
G01 F600 X69.396 Y-19.615
G01 F600 X69.436 Y-19.605
G01 F600 X69.436 Y-25.384
G01 F600 X69.135 Y-25.685
G01 F600 X69.026 Y-25.605
G01 F600 X68.864 Y-25.533
G01 F600 X68.691 Y-25.496
G01 F600 X68.513 Y-25.496
G01 F600 X68.340 Y-25.533
G01 F600 X68.178 Y-25.605
G01 F600 X68.034 Y-25.710
G01 F600 X67.916 Y-25.841
G01 F600 X67.827 Y-25.995
G01 F600 X67.772 Y-26.164
G01 F600 X67.754 Y-26.340
G01 F600 X67.772 Y-26.516
G01 F600 X67.827 Y-26.685
G01 F600 X67.916 Y-26.839
G01 F600 X68.034 Y-26.970
G01 F600 X68.178 Y-27.075
G01 F600 X68.340 Y-27.147
G01 F600 X68.513 Y-27.184
G01 F600 X68.691 Y-27.184
G01 F600 X68.864 Y-27.147
G01 F600 X69.026 Y-27.075
G01 F600 X69.169 Y-26.970
G01 F600 X69.288 Y-26.839
G01 F600 X69.377 Y-26.685
G01 F600 X69.432 Y-26.516
G01 F600 X69.436 Y-26.478
G01 F600 X69.436 Y-33.639
G01 F600 X67.931 Y-35.144
G01 F600 X65.733 Y-35.144
G01 F600 X65.721 Y-35.032
G01 F600 X65.660 Y-34.844
G01 F600 X65.560 Y-34.672
G01 F600 X65.428 Y-34.524
G01 F600 X65.267 Y-34.407
G01 F600 X65.085 Y-34.327
G01 F600 X64.891 Y-34.285
G01 F600 X64.693 Y-34.285
G01 F600 X64.498 Y-34.327
G01 F600 X64.317 Y-34.407
G01 F600 X64.156 Y-34.524
G01 F600 X64.023 Y-34.672
G01 F600 X63.924 Y-34.844
G01 F600 X63.863 Y-35.032
G01 F600 X63.842 Y-35.230
G01 F600 X63.863 Y-35.428
G01 F600 X63.924 Y-35.616
G01 F600 X64.023 Y-35.788
G01 F600 X64.156 Y-35.936
G01 F600 X64.317 Y-36.053
G01 F600 X64.499 Y-36.133
G01 F600 X64.706 Y-36.173
G01 F600 X64.706 Y-42.179
G01 F600 X60.311 Y-46.574
G01 F600 X58.478 Y-46.574
G01 F600 X48.351 Y-36.448
G01 F600 X48.325 Y-36.425
G01 F600 X48.291 Y-36.414
G01 F600 X38.764 Y-36.414
G01 F600 X38.730 Y-36.418
G01 F600 X38.700 Y-36.435
G01 F600 X27.291 Y-47.844
G01 F600 X26.096 Y-47.844
G01 F600 X26.091 Y-47.792
G01 F600 X26.048 Y-47.660
G01 F600 X25.978 Y-47.540
G01 F600 X25.885 Y-47.437
G01 F600 X25.773 Y-47.355
G01 F600 X25.646 Y-47.298
G01 F600 X25.510 Y-47.270
G01 F600 X24.064 Y-47.270
G01 F600 X23.928 Y-47.298
G01 F600 X23.801 Y-47.355
G01 F600 X23.689 Y-47.437
G01 F600 X23.596 Y-47.540
G01 F600 X23.526 Y-47.660
G01 F600 X23.483 Y-47.792
G01 F600 X23.469 Y-47.930
G01 F600 X23.483 Y-48.068
G01 F600 X23.526 Y-48.200
G01 F600 X23.596 Y-48.320
G01 F600 X23.689 Y-48.424
G01 F600 X23.801 Y-48.505
G01 F600 X23.928 Y-48.562
G01 F600 X24.064 Y-48.590
G01 F600 X25.510 Y-48.590
G01 F600 X25.646 Y-48.562
G01 F600 X25.773 Y-48.505
G01 F600 X25.885 Y-48.424
G01 F600 X25.978 Y-48.320
G01 F600 X26.048 Y-48.200
G01 F600 X26.091 Y-48.068
G01 F600 X26.096 Y-48.016
G01 F600 X27.337 Y-48.016
G01 F600 X27.384 Y-47.995
G01 F600 X38.792 Y-36.586
G01 F600 X48.246 Y-36.586
G01 F600 X58.385 Y-46.725
G01 F600 X58.432 Y-46.746
G01 F600 X118.142 Y-46.746
G01 F600 X118.189 Y-46.725
G01 F600 X122.012 Y-42.900
G01 F600 X122.028 Y-42.852
G01 F600 X122.050 Y-36.173
G01 F600 X122.235 Y-36.133
G01 F600 X122.417 Y-36.053
G01 F600 X122.578 Y-35.936
G01 F600 X122.710 Y-35.788
G01 F600 X122.810 Y-35.616
G01 F600 X122.871 Y-35.428
G01 F600 X122.892 Y-35.230
G01 F600 X122.871 Y-35.032
G01 F600 X122.810 Y-34.844
G01 F600 X122.710 Y-34.672
G01 F600 X122.668 Y-34.625
G01 F600 X126.742 Y-30.550
G01 F600 X126.758 Y-30.502
G01 F600 X126.758 Y-25.420
G01 F600 X126.757 Y-19.561
G01 F600 X127.216 Y-19.442
G01 F600 X127.567 Y-18.846
G01 F600 X127.394 Y-18.176
G01 F600 X126.798 Y-17.825
G01 F600 X126.128 Y-17.998
G01 F600 X125.777 Y-18.594
G01 F600 X125.950 Y-19.264
G01 F600 X126.546 Y-19.615
G01 F600 X126.586 Y-19.605
G01 F600 X126.586 Y-25.384
G01 F600 X126.285 Y-25.685
G01 F600 X126.176 Y-25.605
G01 F600 X126.014 Y-25.533
G01 F600 X125.841 Y-25.496
G01 F600 X125.663 Y-25.496
G01 F600 X125.490 Y-25.533
G01 F600 X125.328 Y-25.605
G01 F600 X125.184 Y-25.710
G01 F600 X125.066 Y-25.841
G01 F600 X124.977 Y-25.995
G01 F600 X124.922 Y-26.164
G01 F600 X124.904 Y-26.340
G01 F600 X124.922 Y-26.516
G01 F600 X124.977 Y-26.685
G01 F600 X125.066 Y-26.839
G01 F600 X125.184 Y-26.970
G01 F600 X125.328 Y-27.075
G01 F600 X125.490 Y-27.147
G01 F600 X125.663 Y-27.184
G01 F600 X125.841 Y-27.184
G01 F600 X126.014 Y-27.147
G01 F600 X126.176 Y-27.075
G01 F600 X126.320 Y-26.970
G01 F600 X126.438 Y-26.839
G01 F600 X126.527 Y-26.685
G01 F600 X126.582 Y-26.516
G01 F600 X126.586 Y-26.478
G01 F600 X126.586 Y-30.464
G01 F600 X122.548 Y-34.503
G01 F600 X122.417 Y-34.407
G01 F600 X122.235 Y-34.327
G01 F600 X122.041 Y-34.285
G01 F600 X121.843 Y-34.285
G01 F600 X121.648 Y-34.327
G01 F600 X121.467 Y-34.407
G01 F600 X121.306 Y-34.524
G01 F600 X121.174 Y-34.672
G01 F600 X121.074 Y-34.844
G01 F600 X121.013 Y-35.032
G01 F600 X120.992 Y-35.230
G01 F600 X121.013 Y-35.428
G01 F600 X121.074 Y-35.616
G01 F600 X121.174 Y-35.788
G01 F600 X121.306 Y-35.936
G01 F600 X121.467 Y-36.053
G01 F600 X121.649 Y-36.133
G01 F600 X121.856 Y-36.173
G01 F600 X121.856 Y-42.814
G01 F600 X118.096 Y-46.574
G01 F600 X98.654 Y-46.574
G01 F600 X102.962 Y-42.265
G01 F600 X102.978 Y-42.217
G01 F600 X103.000 Y-36.173
G01 F600 X103.185 Y-36.133
G01 F600 X103.367 Y-36.053
G01 F600 X103.528 Y-35.936
G01 F600 X103.660 Y-35.788
G01 F600 X103.760 Y-35.616
G01 F600 X103.821 Y-35.428
G01 F600 X103.842 Y-35.230
G01 F600 X103.821 Y-35.032
G01 F600 X103.760 Y-34.844
G01 F600 X103.660 Y-34.672
G01 F600 X103.618 Y-34.625
G01 F600 X107.692 Y-30.550
G01 F600 X107.708 Y-30.502
G01 F600 X107.708 Y-25.420
G01 F600 X107.707 Y-19.561
G01 F600 X108.166 Y-19.442
G01 F600 X108.517 Y-18.846
G01 F600 X108.344 Y-18.176
G01 F600 X107.748 Y-17.825
G01 F600 X107.078 Y-17.998
G01 F600 X106.727 Y-18.594
G01 F600 X106.900 Y-19.264
G01 F600 X107.496 Y-19.615
G01 F600 X107.536 Y-19.605
G01 F600 X107.536 Y-25.384
G01 F600 X107.235 Y-25.685
G01 F600 X107.126 Y-25.605
G01 F600 X106.964 Y-25.533
G01 F600 X106.791 Y-25.496
G01 F600 X106.613 Y-25.496
G01 F600 X106.440 Y-25.533
G01 F600 X106.278 Y-25.605
G01 F600 X106.134 Y-25.710
G01 F600 X106.016 Y-25.841
G01 F600 X105.927 Y-25.995
G01 F600 X105.872 Y-26.164
G01 F600 X105.854 Y-26.340
G01 F600 X105.872 Y-26.516
G01 F600 X105.927 Y-26.685
G01 F600 X106.016 Y-26.839
G01 F600 X106.134 Y-26.970
G01 F600 X106.278 Y-27.075
G01 F600 X106.440 Y-27.147
G01 F600 X106.613 Y-27.184
G01 F600 X106.791 Y-27.184
G01 F600 X106.964 Y-27.147
G01 F600 X107.126 Y-27.075
G01 F600 X107.270 Y-26.970
G01 F600 X107.388 Y-26.839
G01 F600 X107.477 Y-26.685
G01 F600 X107.532 Y-26.516
G01 F600 X107.536 Y-26.478
G01 F600 X107.536 Y-30.464
G01 F600 X103.498 Y-34.503
G01 F600 X103.367 Y-34.407
G01 F600 X103.185 Y-34.327
G01 F600 X102.991 Y-34.285
G01 F600 X102.793 Y-34.285
G01 F600 X102.598 Y-34.327
G01 F600 X102.417 Y-34.407
G01 F600 X102.256 Y-34.524
G01 F600 X102.124 Y-34.672
G01 F600 X102.024 Y-34.844
G01 F600 X101.963 Y-35.032
G01 F600 X101.942 Y-35.230
G01 F600 X101.963 Y-35.428
G01 F600 X102.024 Y-35.616
G01 F600 X102.124 Y-35.788
G01 F600 X102.256 Y-35.936
G01 F600 X102.417 Y-36.053
G01 F600 X102.599 Y-36.133
G01 F600 X102.806 Y-36.173
G01 F600 X102.806 Y-42.179
G01 F600 X98.411 Y-46.574
G01 F600 X79.604 Y-46.574
G01 F600 X83.912 Y-42.265
G01 F600 X83.928 Y-42.217
G01 F600 X83.950 Y-36.173
G01 F600 X84.135 Y-36.133
G01 F600 X84.317 Y-36.053
G01 F600 X84.478 Y-35.936
G01 F600 X84.610 Y-35.788
G01 F600 X84.710 Y-35.616
G01 F600 X84.771 Y-35.428
G01 F600 X84.792 Y-35.230
G01 F600 X84.771 Y-35.032
G01 F600 X84.710 Y-34.844
G01 F600 X84.610 Y-34.672
G01 F600 X84.568 Y-34.625
G01 F600 X88.642 Y-30.550
G01 F600 X88.658 Y-30.502
G01 F600 X88.658 Y-25.420
G01 F600 X88.657 Y-19.561
G01 F600 X89.116 Y-19.442
G01 F600 X89.467 Y-18.846
G01 F600 X89.294 Y-18.176
G01 F600 X88.698 Y-17.825
G01 F600 X88.028 Y-17.998
G01 F600 X87.677 Y-18.594
G01 F600 X87.850 Y-19.264
G01 F600 X88.446 Y-19.615
G01 F600 X88.486 Y-19.605
G01 F600 X88.486 Y-25.384
G01 F600 X88.185 Y-25.685
G01 F600 X88.076 Y-25.605
G01 F600 X87.914 Y-25.533
G01 F600 X87.741 Y-25.496
G01 F600 X87.563 Y-25.496
G01 F600 X87.390 Y-25.533
G01 F600 X87.228 Y-25.605
G01 F600 X87.084 Y-25.710
G01 F600 X86.966 Y-25.841
G01 F600 X86.877 Y-25.995
G01 F600 X86.822 Y-26.164
G01 F600 X86.804 Y-26.340
G01 F600 X86.822 Y-26.516
G01 F600 X86.877 Y-26.685
G01 F600 X86.966 Y-26.839
G01 F600 X87.084 Y-26.970
G01 F600 X87.228 Y-27.075
G01 F600 X87.390 Y-27.147
G01 F600 X87.563 Y-27.184
G01 F600 X87.741 Y-27.184
G01 F600 X87.914 Y-27.147
G01 F600 X88.076 Y-27.075
G01 F600 X88.220 Y-26.970
G01 F600 X88.338 Y-26.839
G01 F600 X88.427 Y-26.685
G01 F600 X88.482 Y-26.516
G01 F600 X88.486 Y-26.478
G01 F600 X88.486 Y-30.464
G01 F600 X84.448 Y-34.503
G01 F600 X84.317 Y-34.407
G01 F600 X84.135 Y-34.327
G01 F600 X83.941 Y-34.285
G01 F600 X83.743 Y-34.285
G01 F600 X83.548 Y-34.327
G01 F600 X83.367 Y-34.407
G01 F600 X83.206 Y-34.524
G01 F600 X83.074 Y-34.672
G01 F600 X82.974 Y-34.844
G01 F600 X82.913 Y-35.032
G01 F600 X82.892 Y-35.230
G01 F600 X82.913 Y-35.428
G01 F600 X82.974 Y-35.616
G01 F600 X83.074 Y-35.788
G01 F600 X83.206 Y-35.936
G01 F600 X83.367 Y-36.053
G01 F600 X83.549 Y-36.133
G01 F600 X83.756 Y-36.173
G01 F600 X83.756 Y-42.179
G01 F600 X79.361 Y-46.574
G01 F600 X60.554 Y-46.574
G01 F600 X64.862 Y-42.265
G01 F600 X64.878 Y-42.217
G01 F600 X64.900 Y-36.173
G01 F600 X65.085 Y-36.133
G01 F600 X65.267 Y-36.053
G01 F600 X65.428 Y-35.936
G01 F600 X65.560 Y-35.788
G01 F600 X65.660 Y-35.616
G01 F600 X65.721 Y-35.428
G01 F600 X65.733 Y-35.316
G01 F600 X67.977 Y-35.316
G01 F600 X68.024 Y-35.295
G01 F600 X69.592 Y-33.725
G01 F600 X69.608 Y-33.677
G01 F600 X69.608 Y-25.420
G01 F600 X69.607 Y-19.561
G01 F600 X70.066 Y-19.442
G01 F600 X70.417 Y-18.846
G01 F600 X70.244 Y-18.176
G01 F600 X69.648 Y-17.825
G00 F3000 Z1.000
G00 F3000 X39.303 Y-19.330
G00 F1500 Z0
G01 F600 Z-1.000
G01 F600 X39.168 Y-19.358
G01 F600 X39.041 Y-19.415
G01 F600 X38.929 Y-19.497
G01 F600 X38.836 Y-19.600
G01 F600 X38.766 Y-19.720
G01 F600 X38.723 Y-19.852
G01 F600 X38.709 Y-19.990
G01 F600 X38.723 Y-20.128
G01 F600 X38.766 Y-20.260
G01 F600 X38.836 Y-20.380
G01 F600 X38.929 Y-20.483
G01 F600 X39.041 Y-20.565
G01 F600 X39.168 Y-20.622
G01 F600 X39.303 Y-20.650
G01 F600 X40.750 Y-20.650
G01 F600 X40.886 Y-20.622
G01 F600 X41.013 Y-20.565
G01 F600 X41.125 Y-20.483
G01 F600 X41.218 Y-20.380
G01 F600 X41.288 Y-20.260
G01 F600 X41.331 Y-20.128
G01 F600 X41.345 Y-19.990
G01 F600 X41.331 Y-19.852
G01 F600 X41.288 Y-19.720
G01 F600 X41.218 Y-19.600
G01 F600 X41.125 Y-19.497
G01 F600 X41.013 Y-19.415
G01 F600 X40.886 Y-19.358
G01 F600 X40.750 Y-19.330
G01 F600 X39.303 Y-19.330
G00 F3000 Z1.000
G00 F3000 X24.064 Y-19.330
G00 F1500 Z0
G01 F600 Z-1.000
G01 F600 X23.928 Y-19.358
G01 F600 X23.801 Y-19.415
G01 F600 X23.689 Y-19.497
G01 F600 X23.596 Y-19.600
G01 F600 X23.526 Y-19.720
G01 F600 X23.483 Y-19.852
G01 F600 X23.469 Y-19.990
G01 F600 X23.483 Y-20.128
G01 F600 X23.526 Y-20.260
G01 F600 X23.596 Y-20.380
G01 F600 X23.689 Y-20.483
G01 F600 X23.801 Y-20.565
G01 F600 X23.928 Y-20.622
G01 F600 X24.064 Y-20.650
G01 F600 X25.510 Y-20.650
G01 F600 X25.646 Y-20.622
G01 F600 X25.773 Y-20.565
G01 F600 X25.885 Y-20.483
G01 F600 X25.978 Y-20.380
G01 F600 X26.048 Y-20.260
G01 F600 X26.091 Y-20.128
G01 F600 X26.105 Y-19.990
G01 F600 X26.091 Y-19.852
G01 F600 X26.048 Y-19.720
G01 F600 X25.978 Y-19.600
G01 F600 X25.885 Y-19.497
G01 F600 X25.773 Y-19.415
G01 F600 X25.646 Y-19.358
G01 F600 X25.510 Y-19.330
G01 F600 X24.064 Y-19.330
G00 F3000 Z1.000
G00 F3000 X101.748 Y-19.825
G00 F1500 Z0
G01 F600 Z-1.000
G01 F600 X101.078 Y-19.998
G01 F600 X100.727 Y-20.594
G01 F600 X100.900 Y-21.264
G01 F600 X101.496 Y-21.615
G01 F600 X102.166 Y-21.442
G01 F600 X102.517 Y-20.846
G01 F600 X102.344 Y-20.176
G01 F600 X101.748 Y-19.825
G00 F3000 Z1.000
G00 F3000 X120.798 Y-19.825
G00 F1500 Z0
G01 F600 Z-1.000
G01 F600 X120.128 Y-19.998
G01 F600 X119.777 Y-20.594
G01 F600 X119.950 Y-21.264
G01 F600 X120.546 Y-21.615
G01 F600 X121.216 Y-21.442
G01 F600 X121.567 Y-20.846
G01 F600 X121.394 Y-20.176
G01 F600 X120.798 Y-19.825
G00 F3000 Z1.000
G00 F3000 X82.698 Y-19.825
G00 F1500 Z0
G01 F600 Z-1.000
G01 F600 X82.028 Y-19.998
G01 F600 X81.677 Y-20.594
G01 F600 X81.850 Y-21.264
G01 F600 X82.446 Y-21.615
G01 F600 X83.116 Y-21.442
G01 F600 X83.467 Y-20.846
G01 F600 X83.294 Y-20.176
G01 F600 X82.698 Y-19.825
G00 F3000 Z1.000
G00 F3000 X63.648 Y-19.825
G00 F1500 Z0
G01 F600 Z-1.000
G01 F600 X62.978 Y-19.998
G01 F600 X62.627 Y-20.594
G01 F600 X62.800 Y-21.264
G01 F600 X63.396 Y-21.615
G01 F600 X64.066 Y-21.442
G01 F600 X64.417 Y-20.846
G01 F600 X64.244 Y-20.176
G01 F600 X63.648 Y-19.825
G00 F3000 Z1.000
G00 F3000 X24.064 Y-21.870
G00 F1500 Z0
G01 F600 Z-1.000
G01 F600 X23.928 Y-21.898
G01 F600 X23.801 Y-21.955
G01 F600 X23.689 Y-22.037
G01 F600 X23.596 Y-22.140
G01 F600 X23.526 Y-22.260
G01 F600 X23.483 Y-22.392
G01 F600 X23.469 Y-22.530
G01 F600 X23.483 Y-22.668
G01 F600 X23.526 Y-22.800
G01 F600 X23.596 Y-22.920
G01 F600 X23.689 Y-23.024
G01 F600 X23.801 Y-23.105
G01 F600 X23.928 Y-23.162
G01 F600 X24.064 Y-23.190
G01 F600 X25.510 Y-23.190
G01 F600 X25.646 Y-23.162
G01 F600 X25.773 Y-23.105
G01 F600 X25.885 Y-23.024
G01 F600 X25.978 Y-22.920
G01 F600 X26.048 Y-22.800
G01 F600 X26.091 Y-22.668
G01 F600 X26.105 Y-22.530
G01 F600 X26.091 Y-22.392
G01 F600 X26.048 Y-22.260
G01 F600 X25.978 Y-22.140
G01 F600 X25.885 Y-22.037
G01 F600 X25.773 Y-21.955
G01 F600 X25.646 Y-21.898
G01 F600 X25.510 Y-21.870
G01 F600 X24.064 Y-21.870
G00 F3000 Z1.000
G00 F3000 X39.303 Y-21.870
G00 F1500 Z0
G01 F600 Z-1.000
G01 F600 X39.168 Y-21.898
G01 F600 X39.041 Y-21.955
G01 F600 X38.929 Y-22.037
G01 F600 X38.836 Y-22.140
G01 F600 X38.766 Y-22.260
G01 F600 X38.723 Y-22.392
G01 F600 X38.709 Y-22.530
G01 F600 X38.723 Y-22.668
G01 F600 X38.766 Y-22.800
G01 F600 X38.836 Y-22.920
G01 F600 X38.929 Y-23.024
G01 F600 X39.041 Y-23.105
G01 F600 X39.168 Y-23.162
G01 F600 X39.303 Y-23.190
G01 F600 X40.750 Y-23.190
G01 F600 X40.886 Y-23.162
G01 F600 X41.013 Y-23.105
G01 F600 X41.125 Y-23.024
G01 F600 X41.218 Y-22.920
G01 F600 X41.288 Y-22.800
G01 F600 X41.331 Y-22.668
G01 F600 X41.345 Y-22.530
G01 F600 X41.331 Y-22.392
G01 F600 X41.288 Y-22.260
G01 F600 X41.218 Y-22.140
G01 F600 X41.125 Y-22.037
G01 F600 X41.013 Y-21.955
G01 F600 X40.886 Y-21.898
G01 F600 X40.750 Y-21.870
G01 F600 X39.303 Y-21.870
G00 F3000 Z1.000
G00 F3000 X24.064 Y-24.410
G00 F1500 Z0
G01 F600 Z-1.000
G01 F600 X23.928 Y-24.438
G01 F600 X23.801 Y-24.495
G01 F600 X23.689 Y-24.577
G01 F600 X23.596 Y-24.680
G01 F600 X23.526 Y-24.800
G01 F600 X23.483 Y-24.932
G01 F600 X23.469 Y-25.070
G01 F600 X23.483 Y-25.208
G01 F600 X23.526 Y-25.340
G01 F600 X23.596 Y-25.460
G01 F600 X23.689 Y-25.564
G01 F600 X23.801 Y-25.645
G01 F600 X23.928 Y-25.702
G01 F600 X24.064 Y-25.730
G01 F600 X25.510 Y-25.730
G01 F600 X25.646 Y-25.702
G01 F600 X25.773 Y-25.645
G01 F600 X25.885 Y-25.564
G01 F600 X25.978 Y-25.460
G01 F600 X26.048 Y-25.340
G01 F600 X26.091 Y-25.208
G01 F600 X26.105 Y-25.070
G01 F600 X26.091 Y-24.932
G01 F600 X26.048 Y-24.800
G01 F600 X25.978 Y-24.680
G01 F600 X25.885 Y-24.577
G01 F600 X25.773 Y-24.495
G01 F600 X25.646 Y-24.438
G01 F600 X25.510 Y-24.410
G01 F600 X24.064 Y-24.410
G00 F3000 Z1.000
G00 F3000 X39.303 Y-24.410
G00 F1500 Z0
G01 F600 Z-1.000
G01 F600 X39.168 Y-24.438
G01 F600 X39.041 Y-24.495
G01 F600 X38.929 Y-24.577
G01 F600 X38.836 Y-24.680
G01 F600 X38.766 Y-24.800
G01 F600 X38.723 Y-24.932
G01 F600 X38.709 Y-25.070
G01 F600 X38.723 Y-25.208
G01 F600 X38.766 Y-25.340
G01 F600 X38.836 Y-25.460
G01 F600 X38.929 Y-25.564
G01 F600 X39.041 Y-25.645
G01 F600 X39.168 Y-25.702
G01 F600 X39.303 Y-25.730
G01 F600 X40.750 Y-25.730
G01 F600 X40.886 Y-25.702
G01 F600 X41.013 Y-25.645
G01 F600 X41.125 Y-25.564
G01 F600 X41.218 Y-25.460
G01 F600 X41.288 Y-25.340
G01 F600 X41.331 Y-25.208
G01 F600 X41.345 Y-25.070
G01 F600 X41.331 Y-24.932
G01 F600 X41.288 Y-24.800
G01 F600 X41.218 Y-24.680
G01 F600 X41.125 Y-24.577
G01 F600 X41.013 Y-24.495
G01 F600 X40.886 Y-24.438
G01 F600 X40.750 Y-24.410
G01 F600 X39.303 Y-24.410
G00 F3000 Z1.000
G00 F3000 X76.657 Y-25.626
G00 F1500 Z0
G01 F600 Z-1.000
G01 F600 X76.837 Y-25.807
G01 F600 X76.806 Y-25.841
G01 F600 X76.717 Y-25.995
G01 F600 X76.662 Y-26.164
G01 F600 X76.657 Y-26.217
G01 F600 X76.657 Y-25.626
G00 F3000 Z1.000
G00 F3000 X95.707 Y-25.626
G00 F1500 Z0
G01 F600 Z-1.000
G01 F600 X95.887 Y-25.807
G01 F600 X95.856 Y-25.841
G01 F600 X95.767 Y-25.995
G01 F600 X95.712 Y-26.164
G01 F600 X95.707 Y-26.217
G01 F600 X95.707 Y-25.626
G00 F3000 Z1.000
G00 F3000 X114.757 Y-25.626
G00 F1500 Z0
G01 F600 Z-1.000
G01 F600 X114.937 Y-25.807
G01 F600 X114.906 Y-25.841
G01 F600 X114.817 Y-25.995
G01 F600 X114.762 Y-26.164
G01 F600 X114.757 Y-26.217
G01 F600 X114.757 Y-25.626
G00 F3000 Z1.000
G00 F3000 X69.436 Y-25.627
G00 F1500 Z0
G01 F600 Z-1.000
G01 F600 X69.436 Y-26.203
G01 F600 X69.432 Y-26.164
G01 F600 X69.377 Y-25.995
G01 F600 X69.288 Y-25.841
G01 F600 X69.257 Y-25.806
G01 F600 X69.436 Y-25.627
G00 F3000 Z1.000
G00 F3000 X88.486 Y-25.627
G00 F1500 Z0
G01 F600 Z-1.000
G01 F600 X88.486 Y-26.203
G01 F600 X88.482 Y-26.164
G01 F600 X88.427 Y-25.995
G01 F600 X88.338 Y-25.841
G01 F600 X88.307 Y-25.806
G01 F600 X88.486 Y-25.627
G00 F3000 Z1.000
G00 F3000 X107.536 Y-25.627
G00 F1500 Z0
G01 F600 Z-1.000
G01 F600 X107.536 Y-26.203
G01 F600 X107.532 Y-26.164
G01 F600 X107.477 Y-25.995
G01 F600 X107.388 Y-25.841
G01 F600 X107.357 Y-25.806
G01 F600 X107.536 Y-25.627
G00 F3000 Z1.000
G00 F3000 X126.586 Y-25.627
G00 F1500 Z0
G01 F600 Z-1.000
G01 F600 X126.586 Y-26.203
G01 F600 X126.582 Y-26.164
G01 F600 X126.527 Y-25.995
G01 F600 X126.438 Y-25.841
G01 F600 X126.407 Y-25.806
G01 F600 X126.586 Y-25.627
G00 F3000 Z1.000
G00 F3000 X24.064 Y-26.950
G00 F1500 Z0
G01 F600 Z-1.000
G01 F600 X23.928 Y-26.978
G01 F600 X23.801 Y-27.035
G01 F600 X23.689 Y-27.117
G01 F600 X23.596 Y-27.220
G01 F600 X23.526 Y-27.340
G01 F600 X23.483 Y-27.472
G01 F600 X23.469 Y-27.610
G01 F600 X23.483 Y-27.748
G01 F600 X23.526 Y-27.880
G01 F600 X23.596 Y-28.000
G01 F600 X23.689 Y-28.104
G01 F600 X23.801 Y-28.185
G01 F600 X23.928 Y-28.242
G01 F600 X24.064 Y-28.270
G01 F600 X25.510 Y-28.270
G01 F600 X25.646 Y-28.242
G01 F600 X25.773 Y-28.185
G01 F600 X25.885 Y-28.104
G01 F600 X25.978 Y-28.000
G01 F600 X26.048 Y-27.880
G01 F600 X26.091 Y-27.748
G01 F600 X26.105 Y-27.610
G01 F600 X26.091 Y-27.472
G01 F600 X26.048 Y-27.340
G01 F600 X25.978 Y-27.220
G01 F600 X25.885 Y-27.117
G01 F600 X25.773 Y-27.035
G01 F600 X25.646 Y-26.978
G01 F600 X25.510 Y-26.950
G01 F600 X24.064 Y-26.950
G00 F3000 Z1.000
G00 F3000 X39.303 Y-26.950
G00 F1500 Z0
G01 F600 Z-1.000
G01 F600 X39.168 Y-26.978
G01 F600 X39.041 Y-27.035
G01 F600 X38.929 Y-27.117
G01 F600 X38.836 Y-27.220
G01 F600 X38.766 Y-27.340
G01 F600 X38.723 Y-27.472
G01 F600 X38.709 Y-27.610
G01 F600 X38.723 Y-27.748
G01 F600 X38.766 Y-27.880
G01 F600 X38.836 Y-28.000
G01 F600 X38.929 Y-28.104
G01 F600 X39.041 Y-28.185
G01 F600 X39.168 Y-28.242
G01 F600 X39.303 Y-28.270
G01 F600 X40.750 Y-28.270
G01 F600 X40.886 Y-28.242
G01 F600 X41.013 Y-28.185
G01 F600 X41.125 Y-28.104
G01 F600 X41.218 Y-28.000
G01 F600 X41.288 Y-27.880
G01 F600 X41.331 Y-27.748
G01 F600 X41.345 Y-27.610
G01 F600 X41.331 Y-27.472
G01 F600 X41.288 Y-27.340
G01 F600 X41.218 Y-27.220
G01 F600 X41.125 Y-27.117
G01 F600 X41.013 Y-27.035
G01 F600 X40.886 Y-26.978
G01 F600 X40.750 Y-26.950
G01 F600 X39.303 Y-26.950
G00 F3000 Z1.000
G00 F3000 X24.064 Y-29.490
G00 F1500 Z0
G01 F600 Z-1.000
G01 F600 X23.928 Y-29.518
G01 F600 X23.801 Y-29.575
G01 F600 X23.689 Y-29.657
G01 F600 X23.596 Y-29.760
G01 F600 X23.526 Y-29.880
G01 F600 X23.483 Y-30.012
G01 F600 X23.469 Y-30.150
G01 F600 X23.483 Y-30.288
G01 F600 X23.526 Y-30.420
G01 F600 X23.596 Y-30.540
G01 F600 X23.689 Y-30.644
G01 F600 X23.801 Y-30.725
G01 F600 X23.928 Y-30.782
G01 F600 X24.064 Y-30.810
G01 F600 X25.510 Y-30.810
G01 F600 X25.646 Y-30.782
G01 F600 X25.773 Y-30.725
G01 F600 X25.885 Y-30.644
G01 F600 X25.978 Y-30.540
G01 F600 X26.048 Y-30.420
G01 F600 X26.091 Y-30.288
G01 F600 X26.105 Y-30.150
G01 F600 X26.091 Y-30.012
G01 F600 X26.048 Y-29.880
G01 F600 X25.978 Y-29.760
G01 F600 X25.885 Y-29.657
G01 F600 X25.773 Y-29.575
G01 F600 X25.646 Y-29.518
G01 F600 X25.510 Y-29.490
G01 F600 X24.064 Y-29.490
G00 F3000 Z1.000
G00 F3000 X39.303 Y-29.490
G00 F1500 Z0
G01 F600 Z-1.000
G01 F600 X39.168 Y-29.518
G01 F600 X39.041 Y-29.575
G01 F600 X38.929 Y-29.657
G01 F600 X38.836 Y-29.760
G01 F600 X38.766 Y-29.880
G01 F600 X38.723 Y-30.012
G01 F600 X38.709 Y-30.150
G01 F600 X38.723 Y-30.288
G01 F600 X38.766 Y-30.420
G01 F600 X38.836 Y-30.540
G01 F600 X38.929 Y-30.644
G01 F600 X39.041 Y-30.725
G01 F600 X39.168 Y-30.782
G01 F600 X39.303 Y-30.810
G01 F600 X40.750 Y-30.810
G01 F600 X40.886 Y-30.782
G01 F600 X41.013 Y-30.725
G01 F600 X41.125 Y-30.644
G01 F600 X41.218 Y-30.540
G01 F600 X41.288 Y-30.420
G01 F600 X41.331 Y-30.288
G01 F600 X41.345 Y-30.150
G01 F600 X41.331 Y-30.012
G01 F600 X41.288 Y-29.880
G01 F600 X41.218 Y-29.760
G01 F600 X41.125 Y-29.657
G01 F600 X41.013 Y-29.575
G01 F600 X40.886 Y-29.518
G01 F600 X40.750 Y-29.490
G01 F600 X39.303 Y-29.490
G00 F3000 Z1.000
G00 F3000 X24.064 Y-32.030
G00 F1500 Z0
G01 F600 Z-1.000
G01 F600 X23.928 Y-32.058
G01 F600 X23.801 Y-32.115
G01 F600 X23.689 Y-32.197
G01 F600 X23.596 Y-32.300
G01 F600 X23.526 Y-32.420
G01 F600 X23.483 Y-32.552
G01 F600 X23.469 Y-32.690
G01 F600 X23.483 Y-32.828
G01 F600 X23.526 Y-32.960
G01 F600 X23.596 Y-33.080
G01 F600 X23.689 Y-33.184
G01 F600 X23.801 Y-33.265
G01 F600 X23.928 Y-33.322
G01 F600 X24.064 Y-33.350
G01 F600 X25.510 Y-33.350
G01 F600 X25.646 Y-33.322
G01 F600 X25.773 Y-33.265
G01 F600 X25.885 Y-33.184
G01 F600 X25.978 Y-33.080
G01 F600 X26.048 Y-32.960
G01 F600 X26.091 Y-32.828
G01 F600 X26.105 Y-32.690
G01 F600 X26.091 Y-32.552
G01 F600 X26.048 Y-32.420
G01 F600 X25.978 Y-32.300
G01 F600 X25.885 Y-32.197
G01 F600 X25.773 Y-32.115
G01 F600 X25.646 Y-32.058
G01 F600 X25.510 Y-32.030
G01 F600 X24.064 Y-32.030
G00 F3000 Z1.000
G00 F3000 X39.303 Y-32.030
G00 F1500 Z0
G01 F600 Z-1.000
G01 F600 X39.168 Y-32.058
G01 F600 X39.041 Y-32.115
G01 F600 X38.929 Y-32.197
G01 F600 X38.836 Y-32.300
G01 F600 X38.766 Y-32.420
G01 F600 X38.723 Y-32.552
G01 F600 X38.709 Y-32.690
G01 F600 X38.723 Y-32.828
G01 F600 X38.766 Y-32.960
G01 F600 X38.836 Y-33.080
G01 F600 X38.929 Y-33.184
G01 F600 X39.041 Y-33.265
G01 F600 X39.168 Y-33.322
G01 F600 X39.303 Y-33.350
G01 F600 X40.750 Y-33.350
G01 F600 X40.886 Y-33.322
G01 F600 X41.013 Y-33.265
G01 F600 X41.125 Y-33.184
G01 F600 X41.218 Y-33.080
G01 F600 X41.288 Y-32.960
G01 F600 X41.331 Y-32.828
G01 F600 X41.345 Y-32.690
G01 F600 X41.331 Y-32.552
G01 F600 X41.288 Y-32.420
G01 F600 X41.218 Y-32.300
G01 F600 X41.125 Y-32.197
G01 F600 X41.013 Y-32.115
G01 F600 X40.886 Y-32.058
G01 F600 X40.750 Y-32.030
G01 F600 X39.303 Y-32.030
G00 F3000 Z1.000
G00 F3000 X24.064 Y-34.570
G00 F1500 Z0
G01 F600 Z-1.000
G01 F600 X23.928 Y-34.598
G01 F600 X23.801 Y-34.655
G01 F600 X23.689 Y-34.736
G01 F600 X23.596 Y-34.840
G01 F600 X23.526 Y-34.960
G01 F600 X23.483 Y-35.092
G01 F600 X23.469 Y-35.230
G01 F600 X23.483 Y-35.368
G01 F600 X23.526 Y-35.500
G01 F600 X23.596 Y-35.620
G01 F600 X23.689 Y-35.724
G01 F600 X23.801 Y-35.805
G01 F600 X23.928 Y-35.862
G01 F600 X24.064 Y-35.890
G01 F600 X25.326 Y-35.890
G01 F600 X26.606 Y-37.171
G01 F600 X26.606 Y-46.574
G01 F600 X22.889 Y-46.574
G01 F600 X22.855 Y-46.578
G01 F600 X22.825 Y-46.595
G01 F600 X22.188 Y-47.232
G01 F600 X22.168 Y-47.260
G01 F600 X22.161 Y-47.294
G01 F600 X22.157 Y-66.722
G01 F600 X22.008 Y-66.754
G01 F600 X21.861 Y-66.819
G01 F600 X21.730 Y-66.914
G01 F600 X21.622 Y-67.034
G01 F600 X21.542 Y-67.174
G01 F600 X21.492 Y-67.328
G01 F600 X21.475 Y-67.487
G01 F600 X21.475 Y-69.013
G01 F600 X21.492 Y-69.172
G01 F600 X21.542 Y-69.326
G01 F600 X21.622 Y-69.466
G01 F600 X21.730 Y-69.586
G01 F600 X21.861 Y-69.681
G01 F600 X22.008 Y-69.746
G01 F600 X22.166 Y-69.780
G01 F600 X22.328 Y-69.780
G01 F600 X22.486 Y-69.746
G01 F600 X22.633 Y-69.681
G01 F600 X22.764 Y-69.586
G01 F600 X22.872 Y-69.466
G01 F600 X22.952 Y-69.326
G01 F600 X23.002 Y-69.172
G01 F600 X23.019 Y-69.013
G01 F600 X23.019 Y-67.487
G01 F600 X23.002 Y-67.328
G01 F600 X22.952 Y-67.174
G01 F600 X22.872 Y-67.034
G01 F600 X22.764 Y-66.914
G01 F600 X22.633 Y-66.819
G01 F600 X22.486 Y-66.754
G01 F600 X22.333 Y-66.722
G01 F600 X22.331 Y-47.332
G01 F600 X22.917 Y-46.746
G01 F600 X26.702 Y-46.746
G01 F600 X26.735 Y-46.735
G01 F600 X26.762 Y-46.710
G01 F600 X26.778 Y-46.662
G01 F600 X26.777 Y-37.117
G01 F600 X26.751 Y-37.072
G01 F600 X25.557 Y-35.881
G01 F600 X25.646 Y-35.862
G01 F600 X25.773 Y-35.805
G01 F600 X25.885 Y-35.724
G01 F600 X25.978 Y-35.620
G01 F600 X26.048 Y-35.500
G01 F600 X26.091 Y-35.368
G01 F600 X26.105 Y-35.230
G01 F600 X26.091 Y-35.092
G01 F600 X26.048 Y-34.960
G01 F600 X25.978 Y-34.840
G01 F600 X25.885 Y-34.736
G01 F600 X25.773 Y-34.655
G01 F600 X25.646 Y-34.598
G01 F600 X25.510 Y-34.570
G01 F600 X24.064 Y-34.570
G00 F3000 Z1.000
G00 F3000 X39.303 Y-34.570
G00 F1500 Z0
G01 F600 Z-1.000
G01 F600 X39.168 Y-34.598
G01 F600 X39.041 Y-34.655
G01 F600 X38.929 Y-34.736
G01 F600 X38.836 Y-34.840
G01 F600 X38.766 Y-34.960
G01 F600 X38.723 Y-35.092
G01 F600 X38.709 Y-35.230
G01 F600 X38.723 Y-35.368
G01 F600 X38.766 Y-35.500
G01 F600 X38.836 Y-35.620
G01 F600 X38.929 Y-35.724
G01 F600 X39.041 Y-35.805
G01 F600 X39.168 Y-35.862
G01 F600 X39.303 Y-35.890
G01 F600 X40.750 Y-35.890
G01 F600 X40.886 Y-35.862
G01 F600 X41.013 Y-35.805
G01 F600 X41.125 Y-35.724
G01 F600 X41.218 Y-35.620
G01 F600 X41.288 Y-35.500
G01 F600 X41.331 Y-35.368
G01 F600 X41.345 Y-35.230
G01 F600 X41.331 Y-35.092
G01 F600 X41.288 Y-34.960
G01 F600 X41.218 Y-34.840
G01 F600 X41.125 Y-34.736
G01 F600 X41.013 Y-34.655
G01 F600 X40.886 Y-34.598
G01 F600 X40.750 Y-34.570
G01 F600 X39.303 Y-34.570
G00 F3000 Z1.000
G00 F3000 X39.303 Y-37.110
G00 F1500 Z0
G01 F600 Z-1.000
G01 F600 X39.168 Y-37.138
G01 F600 X39.041 Y-37.195
G01 F600 X38.929 Y-37.276
G01 F600 X38.836 Y-37.380
G01 F600 X38.766 Y-37.500
G01 F600 X38.723 Y-37.632
G01 F600 X38.709 Y-37.770
G01 F600 X38.723 Y-37.908
G01 F600 X38.766 Y-38.040
G01 F600 X38.836 Y-38.160
G01 F600 X38.929 Y-38.264
G01 F600 X39.041 Y-38.345
G01 F600 X39.168 Y-38.402
G01 F600 X39.255 Y-38.420
G01 F600 X33.618 Y-44.057
G01 F600 X33.598 Y-44.085
G01 F600 X33.591 Y-44.119
G01 F600 X33.587 Y-66.722
G01 F600 X33.438 Y-66.754
G01 F600 X33.291 Y-66.819
G01 F600 X33.160 Y-66.914
G01 F600 X33.052 Y-67.034
G01 F600 X32.972 Y-67.174
G01 F600 X32.922 Y-67.328
G01 F600 X32.905 Y-67.487
G01 F600 X32.905 Y-69.013
G01 F600 X32.922 Y-69.172
G01 F600 X32.972 Y-69.326
G01 F600 X33.052 Y-69.466
G01 F600 X33.160 Y-69.586
G01 F600 X33.291 Y-69.681
G01 F600 X33.438 Y-69.746
G01 F600 X33.596 Y-69.780
G01 F600 X33.758 Y-69.780
G01 F600 X33.916 Y-69.746
G01 F600 X34.063 Y-69.681
G01 F600 X34.194 Y-69.586
G01 F600 X34.302 Y-69.466
G01 F600 X34.382 Y-69.326
G01 F600 X34.432 Y-69.172
G01 F600 X34.449 Y-69.013
G01 F600 X34.449 Y-67.487
G01 F600 X34.432 Y-67.328
G01 F600 X34.382 Y-67.174
G01 F600 X34.302 Y-67.034
G01 F600 X34.194 Y-66.914
G01 F600 X34.063 Y-66.819
G01 F600 X33.916 Y-66.754
G01 F600 X33.763 Y-66.722
G01 F600 X33.761 Y-44.157
G01 F600 X39.487 Y-38.430
G01 F600 X40.750 Y-38.430
G01 F600 X40.886 Y-38.402
G01 F600 X41.013 Y-38.345
G01 F600 X41.125 Y-38.264
G01 F600 X41.218 Y-38.160
G01 F600 X41.288 Y-38.040
G01 F600 X41.331 Y-37.908
G01 F600 X41.345 Y-37.770
G01 F600 X41.331 Y-37.632
G01 F600 X41.288 Y-37.500
G01 F600 X41.218 Y-37.380
G01 F600 X41.125 Y-37.276
G01 F600 X41.013 Y-37.195
G01 F600 X40.886 Y-37.138
G01 F600 X40.750 Y-37.110
G01 F600 X39.303 Y-37.110
G00 F3000 Z1.000
G00 F3000 X39.303 Y-39.650
G00 F1500 Z0
G01 F600 Z-1.000
G01 F600 X39.168 Y-39.678
G01 F600 X39.041 Y-39.735
G01 F600 X38.929 Y-39.817
G01 F600 X38.836 Y-39.920
G01 F600 X38.766 Y-40.040
G01 F600 X38.723 Y-40.172
G01 F600 X38.709 Y-40.310
G01 F600 X38.723 Y-40.448
G01 F600 X38.766 Y-40.580
G01 F600 X38.836 Y-40.700
G01 F600 X38.929 Y-40.803
G01 F600 X39.041 Y-40.885
G01 F600 X39.168 Y-40.942
G01 F600 X39.255 Y-40.960
G01 F600 X36.158 Y-44.057
G01 F600 X36.138 Y-44.085
G01 F600 X36.131 Y-44.119
G01 F600 X36.127 Y-66.722
G01 F600 X35.978 Y-66.754
G01 F600 X35.831 Y-66.819
G01 F600 X35.700 Y-66.914
G01 F600 X35.592 Y-67.034
G01 F600 X35.512 Y-67.174
G01 F600 X35.462 Y-67.328
G01 F600 X35.445 Y-67.487
G01 F600 X35.445 Y-69.013
G01 F600 X35.462 Y-69.172
G01 F600 X35.512 Y-69.326
G01 F600 X35.592 Y-69.466
G01 F600 X35.700 Y-69.586
G01 F600 X35.831 Y-69.681
G01 F600 X35.978 Y-69.746
G01 F600 X36.136 Y-69.780
G01 F600 X36.298 Y-69.780
G01 F600 X36.456 Y-69.746
G01 F600 X36.603 Y-69.681
G01 F600 X36.733 Y-69.586
G01 F600 X36.842 Y-69.466
G01 F600 X36.922 Y-69.326
G01 F600 X36.972 Y-69.172
G01 F600 X36.989 Y-69.013
G01 F600 X36.989 Y-67.487
G01 F600 X36.972 Y-67.328
G01 F600 X36.922 Y-67.174
G01 F600 X36.842 Y-67.034
G01 F600 X36.733 Y-66.914
G01 F600 X36.603 Y-66.819
G01 F600 X36.456 Y-66.754
G01 F600 X36.303 Y-66.722
G01 F600 X36.301 Y-44.157
G01 F600 X39.487 Y-40.970
G01 F600 X40.750 Y-40.970
G01 F600 X40.886 Y-40.942
G01 F600 X41.013 Y-40.885
G01 F600 X41.125 Y-40.803
G01 F600 X41.218 Y-40.700
G01 F600 X41.288 Y-40.580
G01 F600 X41.331 Y-40.448
G01 F600 X41.345 Y-40.310
G01 F600 X41.331 Y-40.172
G01 F600 X41.288 Y-40.040
G01 F600 X41.218 Y-39.920
G01 F600 X41.125 Y-39.817
G01 F600 X41.013 Y-39.735
G01 F600 X40.886 Y-39.678
G01 F600 X40.750 Y-39.650
G01 F600 X39.303 Y-39.650
G00 F3000 Z1.000
G00 F3000 X39.303 Y-42.190
G00 F1500 Z0
G01 F600 Z-1.000
G01 F600 X39.168 Y-42.218
G01 F600 X39.041 Y-42.275
G01 F600 X38.929 Y-42.357
G01 F600 X38.836 Y-42.460
G01 F600 X38.766 Y-42.580
G01 F600 X38.723 Y-42.712
G01 F600 X38.709 Y-42.850
G01 F600 X38.723 Y-42.988
G01 F600 X38.766 Y-43.120
G01 F600 X38.836 Y-43.240
G01 F600 X38.929 Y-43.343
G01 F600 X39.041 Y-43.425
G01 F600 X39.168 Y-43.482
G01 F600 X39.303 Y-43.510
G01 F600 X40.750 Y-43.510
G01 F600 X40.886 Y-43.482
G01 F600 X41.013 Y-43.425
G01 F600 X41.125 Y-43.343
G01 F600 X41.218 Y-43.240
G01 F600 X41.288 Y-43.120
G01 F600 X41.331 Y-42.988
G01 F600 X41.345 Y-42.850
G01 F600 X41.331 Y-42.712
G01 F600 X41.288 Y-42.580
G01 F600 X41.218 Y-42.460
G01 F600 X41.125 Y-42.357
G01 F600 X41.013 Y-42.275
G01 F600 X40.886 Y-42.218
G01 F600 X40.750 Y-42.190
G01 F600 X39.303 Y-42.190
G00 F3000 Z1.000
G00 F3000 X39.303 Y-44.730
G00 F1500 Z0
G01 F600 Z-1.000
G01 F600 X39.168 Y-44.758
G01 F600 X39.041 Y-44.815
G01 F600 X38.929 Y-44.897
G01 F600 X38.836 Y-45.000
G01 F600 X38.766 Y-45.120
G01 F600 X38.723 Y-45.252
G01 F600 X38.709 Y-45.390
G01 F600 X38.723 Y-45.528
G01 F600 X38.766 Y-45.660
G01 F600 X38.836 Y-45.780
G01 F600 X38.929 Y-45.884
G01 F600 X39.041 Y-45.965
G01 F600 X39.168 Y-46.022
G01 F600 X39.303 Y-46.050
G01 F600 X40.750 Y-46.050
G01 F600 X40.886 Y-46.022
G01 F600 X41.013 Y-45.965
G01 F600 X41.125 Y-45.884
G01 F600 X41.218 Y-45.780
G01 F600 X41.288 Y-45.660
G01 F600 X41.331 Y-45.528
G01 F600 X41.345 Y-45.390
G01 F600 X41.331 Y-45.252
G01 F600 X41.288 Y-45.120
G01 F600 X41.218 Y-45.000
G01 F600 X41.125 Y-44.897
G01 F600 X41.013 Y-44.815
G01 F600 X40.886 Y-44.758
G01 F600 X40.750 Y-44.730
G01 F600 X39.303 Y-44.730
G00 F3000 Z1.000
G00 F3000 X39.303 Y-47.270
G00 F1500 Z0
G01 F600 Z-1.000
G01 F600 X39.168 Y-47.298
G01 F600 X39.041 Y-47.355
G01 F600 X38.929 Y-47.437
G01 F600 X38.836 Y-47.540
G01 F600 X38.766 Y-47.660
G01 F600 X38.723 Y-47.792
G01 F600 X38.709 Y-47.930
G01 F600 X38.723 Y-48.068
G01 F600 X38.766 Y-48.200
G01 F600 X38.836 Y-48.320
G01 F600 X38.929 Y-48.424
G01 F600 X39.041 Y-48.505
G01 F600 X39.168 Y-48.562
G01 F600 X39.303 Y-48.590
G01 F600 X40.750 Y-48.590
G01 F600 X40.886 Y-48.562
G01 F600 X41.013 Y-48.505
G01 F600 X41.125 Y-48.424
G01 F600 X41.218 Y-48.320
G01 F600 X41.288 Y-48.200
G01 F600 X41.331 Y-48.068
G01 F600 X41.345 Y-47.930
G01 F600 X41.331 Y-47.792
G01 F600 X41.288 Y-47.660
G01 F600 X41.218 Y-47.540
G01 F600 X41.125 Y-47.437
G01 F600 X41.013 Y-47.355
G01 F600 X40.886 Y-47.298
G01 F600 X40.750 Y-47.270
G01 F600 X39.303 Y-47.270
G00 F3000 Z1.000
G00 F3000 X24.064 Y-49.810
G00 F1500 Z0
G01 F600 Z-1.000
G01 F600 X23.928 Y-49.838
G01 F600 X23.801 Y-49.895
G01 F600 X23.689 Y-49.977
G01 F600 X23.596 Y-50.080
G01 F600 X23.526 Y-50.200
G01 F600 X23.483 Y-50.332
G01 F600 X23.469 Y-50.470
G01 F600 X23.483 Y-50.608
G01 F600 X23.526 Y-50.740
G01 F600 X23.596 Y-50.860
G01 F600 X23.689 Y-50.964
G01 F600 X23.801 Y-51.045
G01 F600 X23.928 Y-51.102
G01 F600 X24.064 Y-51.130
G01 F600 X25.510 Y-51.130
G01 F600 X25.646 Y-51.102
G01 F600 X25.773 Y-51.045
G01 F600 X25.885 Y-50.964
G01 F600 X25.978 Y-50.860
G01 F600 X26.048 Y-50.740
G01 F600 X26.091 Y-50.608
G01 F600 X26.105 Y-50.470
G01 F600 X26.091 Y-50.332
G01 F600 X26.048 Y-50.200
G01 F600 X25.978 Y-50.080
G01 F600 X25.885 Y-49.977
G01 F600 X25.773 Y-49.895
G01 F600 X25.646 Y-49.838
G01 F600 X25.510 Y-49.810
G01 F600 X24.064 Y-49.810
G00 F3000 Z1.000
G00 F3000 X39.303 Y-49.810
G00 F1500 Z0
G01 F600 Z-1.000
G01 F600 X39.168 Y-49.838
G01 F600 X39.041 Y-49.895
G01 F600 X38.929 Y-49.977
G01 F600 X38.836 Y-50.080
G01 F600 X38.766 Y-50.200
G01 F600 X38.723 Y-50.332
G01 F600 X38.709 Y-50.470
G01 F600 X38.723 Y-50.608
G01 F600 X38.766 Y-50.740
G01 F600 X38.836 Y-50.860
G01 F600 X38.929 Y-50.964
G01 F600 X39.041 Y-51.045
G01 F600 X39.168 Y-51.102
G01 F600 X39.303 Y-51.130
G01 F600 X40.750 Y-51.130
G01 F600 X40.886 Y-51.102
G01 F600 X41.013 Y-51.045
G01 F600 X41.125 Y-50.964
G01 F600 X41.218 Y-50.860
G01 F600 X41.288 Y-50.740
G01 F600 X41.331 Y-50.608
G01 F600 X41.345 Y-50.470
G01 F600 X41.331 Y-50.332
G01 F600 X41.288 Y-50.200
G01 F600 X41.218 Y-50.080
G01 F600 X41.125 Y-49.977
G01 F600 X41.013 Y-49.895
G01 F600 X40.886 Y-49.838
G01 F600 X40.750 Y-49.810
G01 F600 X39.303 Y-49.810
G00 F3000 Z1.000
G00 F3000 X24.064 Y-52.350
G00 F1500 Z0
G01 F600 Z-1.000
G01 F600 X23.928 Y-52.378
G01 F600 X23.801 Y-52.435
G01 F600 X23.689 Y-52.517
G01 F600 X23.596 Y-52.620
G01 F600 X23.526 Y-52.740
G01 F600 X23.483 Y-52.872
G01 F600 X23.469 Y-53.010
G01 F600 X23.483 Y-53.148
G01 F600 X23.526 Y-53.280
G01 F600 X23.596 Y-53.400
G01 F600 X23.689 Y-53.504
G01 F600 X23.801 Y-53.585
G01 F600 X23.928 Y-53.642
G01 F600 X24.064 Y-53.670
G01 F600 X25.510 Y-53.670
G01 F600 X25.646 Y-53.642
G01 F600 X25.773 Y-53.585
G01 F600 X25.885 Y-53.504
G01 F600 X25.978 Y-53.400
G01 F600 X26.048 Y-53.280
G01 F600 X26.091 Y-53.148
G01 F600 X26.105 Y-53.010
G01 F600 X26.091 Y-52.872
G01 F600 X26.048 Y-52.740
G01 F600 X25.978 Y-52.620
G01 F600 X25.885 Y-52.517
G01 F600 X25.773 Y-52.435
G01 F600 X25.646 Y-52.378
G01 F600 X25.510 Y-52.350
G01 F600 X24.064 Y-52.350
G00 F3000 Z1.000
G00 F3000 X39.303 Y-52.350
G00 F1500 Z0
G01 F600 Z-1.000
G01 F600 X39.168 Y-52.378
G01 F600 X39.041 Y-52.435
G01 F600 X38.929 Y-52.517
G01 F600 X38.836 Y-52.620
G01 F600 X38.766 Y-52.740
G01 F600 X38.723 Y-52.872
G01 F600 X38.709 Y-53.010
G01 F600 X38.723 Y-53.148
G01 F600 X38.766 Y-53.280
G01 F600 X38.836 Y-53.400
G01 F600 X38.929 Y-53.504
G01 F600 X39.041 Y-53.585
G01 F600 X39.168 Y-53.642
G01 F600 X39.303 Y-53.670
G01 F600 X40.750 Y-53.670
G01 F600 X40.886 Y-53.642
G01 F600 X41.013 Y-53.585
G01 F600 X41.125 Y-53.504
G01 F600 X41.218 Y-53.400
G01 F600 X41.288 Y-53.280
G01 F600 X41.331 Y-53.148
G01 F600 X41.345 Y-53.010
G01 F600 X41.331 Y-52.872
G01 F600 X41.288 Y-52.740
G01 F600 X41.218 Y-52.620
G01 F600 X41.125 Y-52.517
G01 F600 X41.013 Y-52.435
G01 F600 X40.886 Y-52.378
G01 F600 X40.750 Y-52.350
G01 F600 X39.303 Y-52.350
G00 F3000 Z1.000
G00 F3000 X32.337 Y-53.620
G00 F1500 Z0
G01 F600 Z-1.000
G01 F600 X32.202 Y-53.648
G01 F600 X32.075 Y-53.705
G01 F600 X31.963 Y-53.787
G01 F600 X31.870 Y-53.890
G01 F600 X31.800 Y-54.010
G01 F600 X31.757 Y-54.142
G01 F600 X31.743 Y-54.280
G01 F600 X31.757 Y-54.418
G01 F600 X31.800 Y-54.550
G01 F600 X31.870 Y-54.670
G01 F600 X31.963 Y-54.774
G01 F600 X32.075 Y-54.855
G01 F600 X32.202 Y-54.912
G01 F600 X32.337 Y-54.940
G01 F600 X32.476 Y-54.940
G01 F600 X32.612 Y-54.912
G01 F600 X32.739 Y-54.855
G01 F600 X32.851 Y-54.774
G01 F600 X32.944 Y-54.670
G01 F600 X33.014 Y-54.550
G01 F600 X33.056 Y-54.418
G01 F600 X33.071 Y-54.280
G01 F600 X33.056 Y-54.142
G01 F600 X33.014 Y-54.010
G01 F600 X32.944 Y-53.890
G01 F600 X32.851 Y-53.787
G01 F600 X32.739 Y-53.705
G01 F600 X32.612 Y-53.648
G01 F600 X32.476 Y-53.620
G01 F600 X32.337 Y-53.620
G00 F3000 Z1.000
G00 F3000 X34.878 Y-53.620
G00 F1500 Z0
G01 F600 Z-1.000
G01 F600 X34.742 Y-53.648
G01 F600 X34.615 Y-53.705
G01 F600 X34.503 Y-53.787
G01 F600 X34.410 Y-53.890
G01 F600 X34.340 Y-54.010
G01 F600 X34.297 Y-54.142
G01 F600 X34.283 Y-54.280
G01 F600 X34.297 Y-54.418
G01 F600 X34.340 Y-54.550
G01 F600 X34.410 Y-54.670
G01 F600 X34.503 Y-54.774
G01 F600 X34.615 Y-54.855
G01 F600 X34.742 Y-54.912
G01 F600 X34.878 Y-54.940
G01 F600 X35.016 Y-54.940
G01 F600 X35.152 Y-54.912
G01 F600 X35.279 Y-54.855
G01 F600 X35.391 Y-54.774
G01 F600 X35.484 Y-54.670
G01 F600 X35.554 Y-54.550
G01 F600 X35.596 Y-54.418
G01 F600 X35.611 Y-54.280
G01 F600 X35.596 Y-54.142
G01 F600 X35.554 Y-54.010
G01 F600 X35.484 Y-53.890
G01 F600 X35.391 Y-53.787
G01 F600 X35.279 Y-53.705
G01 F600 X35.152 Y-53.648
G01 F600 X35.016 Y-53.620
G01 F600 X34.878 Y-53.620
G00 F3000 Z1.000
G00 F3000 X29.798 Y-53.620
G00 F1500 Z0
G01 F600 Z-1.000
G01 F600 X29.662 Y-53.648
G01 F600 X29.535 Y-53.705
G01 F600 X29.423 Y-53.787
G01 F600 X29.330 Y-53.890
G01 F600 X29.260 Y-54.010
G01 F600 X29.217 Y-54.142
G01 F600 X29.203 Y-54.280
G01 F600 X29.217 Y-54.418
G01 F600 X29.260 Y-54.550
G01 F600 X29.330 Y-54.670
G01 F600 X29.423 Y-54.774
G01 F600 X29.535 Y-54.855
G01 F600 X29.662 Y-54.912
G01 F600 X29.798 Y-54.940
G01 F600 X29.936 Y-54.940
G01 F600 X30.072 Y-54.912
G01 F600 X30.199 Y-54.855
G01 F600 X30.311 Y-54.774
G01 F600 X30.404 Y-54.670
G01 F600 X30.474 Y-54.550
G01 F600 X30.517 Y-54.418
G01 F600 X30.531 Y-54.280
G01 F600 X30.517 Y-54.142
G01 F600 X30.474 Y-54.010
G01 F600 X30.404 Y-53.890
G01 F600 X30.311 Y-53.787
G01 F600 X30.199 Y-53.705
G01 F600 X30.072 Y-53.648
G01 F600 X29.936 Y-53.620
G01 F600 X29.798 Y-53.620
G00 F3000 Z1.000
G00 F3000 X24.064 Y-54.890
G00 F1500 Z0
G01 F600 Z-1.000
G01 F600 X23.928 Y-54.918
G01 F600 X23.801 Y-54.975
G01 F600 X23.689 Y-55.056
G01 F600 X23.596 Y-55.160
G01 F600 X23.526 Y-55.280
G01 F600 X23.483 Y-55.412
G01 F600 X23.469 Y-55.550
G01 F600 X23.483 Y-55.688
G01 F600 X23.526 Y-55.820
G01 F600 X23.596 Y-55.940
G01 F600 X23.689 Y-56.044
G01 F600 X23.801 Y-56.125
G01 F600 X23.928 Y-56.182
G01 F600 X24.064 Y-56.210
G01 F600 X25.510 Y-56.210
G01 F600 X25.646 Y-56.182
G01 F600 X25.773 Y-56.125
G01 F600 X25.885 Y-56.044
G01 F600 X25.978 Y-55.940
G01 F600 X26.048 Y-55.820
G01 F600 X26.091 Y-55.688
G01 F600 X26.105 Y-55.550
G01 F600 X26.091 Y-55.412
G01 F600 X26.048 Y-55.280
G01 F600 X25.978 Y-55.160
G01 F600 X25.885 Y-55.056
G01 F600 X25.773 Y-54.975
G01 F600 X25.646 Y-54.918
G01 F600 X25.510 Y-54.890
G01 F600 X24.064 Y-54.890
G00 F3000 Z1.000
G00 F3000 X39.303 Y-54.890
G00 F1500 Z0
G01 F600 Z-1.000
G01 F600 X39.168 Y-54.918
G01 F600 X39.041 Y-54.975
G01 F600 X38.929 Y-55.056
G01 F600 X38.836 Y-55.160
G01 F600 X38.766 Y-55.280
G01 F600 X38.723 Y-55.412
G01 F600 X38.709 Y-55.550
G01 F600 X38.723 Y-55.688
G01 F600 X38.766 Y-55.820
G01 F600 X38.836 Y-55.940
G01 F600 X38.929 Y-56.044
G01 F600 X39.041 Y-56.125
G01 F600 X39.168 Y-56.182
G01 F600 X39.303 Y-56.210
G01 F600 X40.750 Y-56.210
G01 F600 X40.886 Y-56.182
G01 F600 X41.013 Y-56.125
G01 F600 X41.125 Y-56.044
G01 F600 X41.218 Y-55.940
G01 F600 X41.288 Y-55.820
G01 F600 X41.331 Y-55.688
G01 F600 X41.345 Y-55.550
G01 F600 X41.331 Y-55.412
G01 F600 X41.288 Y-55.280
G01 F600 X41.218 Y-55.160
G01 F600 X41.125 Y-55.056
G01 F600 X41.013 Y-54.975
G01 F600 X40.886 Y-54.918
G01 F600 X40.750 Y-54.890
G01 F600 X39.303 Y-54.890
G00 F3000 Z1.000
G00 F3000 X29.798 Y-56.160
G00 F1500 Z0
G01 F600 Z-1.000
G01 F600 X29.662 Y-56.188
G01 F600 X29.535 Y-56.245
G01 F600 X29.423 Y-56.327
G01 F600 X29.330 Y-56.430
G01 F600 X29.260 Y-56.550
G01 F600 X29.217 Y-56.682
G01 F600 X29.203 Y-56.820
G01 F600 X29.217 Y-56.958
G01 F600 X29.260 Y-57.090
G01 F600 X29.330 Y-57.210
G01 F600 X29.423 Y-57.314
G01 F600 X29.535 Y-57.395
G01 F600 X29.662 Y-57.452
G01 F600 X29.798 Y-57.480
G01 F600 X29.936 Y-57.480
G01 F600 X30.072 Y-57.452
G01 F600 X30.199 Y-57.395
G01 F600 X30.311 Y-57.314
G01 F600 X30.404 Y-57.210
G01 F600 X30.474 Y-57.090
G01 F600 X30.517 Y-56.958
G01 F600 X30.531 Y-56.820
G01 F600 X30.517 Y-56.682
G01 F600 X30.474 Y-56.550
G01 F600 X30.404 Y-56.430
G01 F600 X30.311 Y-56.327
G01 F600 X30.199 Y-56.245
G01 F600 X30.072 Y-56.188
G01 F600 X29.936 Y-56.160
G01 F600 X29.798 Y-56.160
G00 F3000 Z1.000
G00 F3000 X32.337 Y-56.160
G00 F1500 Z0
G01 F600 Z-1.000
G01 F600 X32.202 Y-56.188
G01 F600 X32.075 Y-56.245
G01 F600 X31.963 Y-56.327
G01 F600 X31.870 Y-56.430
G01 F600 X31.800 Y-56.550
G01 F600 X31.757 Y-56.682
G01 F600 X31.743 Y-56.820
G01 F600 X31.757 Y-56.958
G01 F600 X31.800 Y-57.090
G01 F600 X31.870 Y-57.210
G01 F600 X31.963 Y-57.314
G01 F600 X32.075 Y-57.395
G01 F600 X32.202 Y-57.452
G01 F600 X32.337 Y-57.480
G01 F600 X32.476 Y-57.480
G01 F600 X32.612 Y-57.452
G01 F600 X32.739 Y-57.395
G01 F600 X32.851 Y-57.314
G01 F600 X32.944 Y-57.210
G01 F600 X33.014 Y-57.090
G01 F600 X33.056 Y-56.958
G01 F600 X33.071 Y-56.820
G01 F600 X33.056 Y-56.682
G01 F600 X33.014 Y-56.550
G01 F600 X32.944 Y-56.430
G01 F600 X32.851 Y-56.327
G01 F600 X32.739 Y-56.245
G01 F600 X32.612 Y-56.188
G01 F600 X32.476 Y-56.160
G01 F600 X32.337 Y-56.160
G00 F3000 Z1.000
G00 F3000 X34.878 Y-56.160
G00 F1500 Z0
G01 F600 Z-1.000
G01 F600 X34.742 Y-56.188
G01 F600 X34.615 Y-56.245
G01 F600 X34.503 Y-56.327
G01 F600 X34.410 Y-56.430
G01 F600 X34.340 Y-56.550
G01 F600 X34.297 Y-56.682
G01 F600 X34.283 Y-56.820
G01 F600 X34.297 Y-56.958
G01 F600 X34.340 Y-57.090
G01 F600 X34.410 Y-57.210
G01 F600 X34.503 Y-57.314
G01 F600 X34.615 Y-57.395
G01 F600 X34.742 Y-57.452
G01 F600 X34.878 Y-57.480
G01 F600 X35.016 Y-57.480
G01 F600 X35.152 Y-57.452
G01 F600 X35.279 Y-57.395
G01 F600 X35.391 Y-57.314
G01 F600 X35.484 Y-57.210
G01 F600 X35.554 Y-57.090
G01 F600 X35.596 Y-56.958
G01 F600 X35.611 Y-56.820
G01 F600 X35.596 Y-56.682
G01 F600 X35.554 Y-56.550
G01 F600 X35.484 Y-56.430
G01 F600 X35.391 Y-56.327
G01 F600 X35.279 Y-56.245
G01 F600 X35.152 Y-56.188
G01 F600 X35.016 Y-56.160
G01 F600 X34.878 Y-56.160
G00 F3000 Z1.000
G00 F3000 X42.486 Y-66.720
G00 F1500 Z0
G01 F600 Z-1.000
G01 F600 X42.328 Y-66.754
G01 F600 X42.181 Y-66.819
G01 F600 X42.050 Y-66.914
G01 F600 X41.942 Y-67.034
G01 F600 X41.862 Y-67.174
G01 F600 X41.812 Y-67.328
G01 F600 X41.795 Y-67.487
G01 F600 X41.795 Y-69.013
G01 F600 X41.812 Y-69.172
G01 F600 X41.862 Y-69.326
G01 F600 X41.942 Y-69.466
G01 F600 X42.050 Y-69.586
G01 F600 X42.181 Y-69.681
G01 F600 X42.328 Y-69.746
G01 F600 X42.486 Y-69.780
G01 F600 X42.648 Y-69.780
G01 F600 X42.806 Y-69.746
G01 F600 X42.953 Y-69.681
G01 F600 X43.084 Y-69.586
G01 F600 X43.192 Y-69.466
G01 F600 X43.272 Y-69.326
G01 F600 X43.322 Y-69.172
G01 F600 X43.339 Y-69.013
G01 F600 X43.339 Y-67.487
G01 F600 X43.322 Y-67.328
G01 F600 X43.272 Y-67.174
G01 F600 X43.192 Y-67.034
G01 F600 X43.084 Y-66.914
G01 F600 X42.953 Y-66.819
G01 F600 X42.806 Y-66.754
G01 F600 X42.648 Y-66.720
G01 F600 X42.486 Y-66.720
G00 F3000 Z1.000
G00 F3000 X45.026 Y-66.720
G00 F1500 Z0
G01 F600 Z-1.000
G01 F600 X44.868 Y-66.754
G01 F600 X44.721 Y-66.819
G01 F600 X44.590 Y-66.914
G01 F600 X44.482 Y-67.034
G01 F600 X44.402 Y-67.174
G01 F600 X44.352 Y-67.328
G01 F600 X44.335 Y-67.487
G01 F600 X44.335 Y-69.013
G01 F600 X44.352 Y-69.172
G01 F600 X44.402 Y-69.326
G01 F600 X44.482 Y-69.466
G01 F600 X44.590 Y-69.586
G01 F600 X44.721 Y-69.681
G01 F600 X44.868 Y-69.746
G01 F600 X45.026 Y-69.780
G01 F600 X45.188 Y-69.780
G01 F600 X45.346 Y-69.746
G01 F600 X45.493 Y-69.681
G01 F600 X45.623 Y-69.586
G01 F600 X45.732 Y-69.466
G01 F600 X45.812 Y-69.326
G01 F600 X45.862 Y-69.172
G01 F600 X45.879 Y-69.013
G01 F600 X45.879 Y-67.487
G01 F600 X45.862 Y-67.328
G01 F600 X45.812 Y-67.174
G01 F600 X45.732 Y-67.034
G01 F600 X45.623 Y-66.914
G01 F600 X45.493 Y-66.819
G01 F600 X45.346 Y-66.754
G01 F600 X45.188 Y-66.720
G01 F600 X45.026 Y-66.720
G00 F3000 Z1.000
G00 F3000 X19.626 Y-66.720
G00 F1500 Z0
G01 F600 Z-1.000
G01 F600 X19.468 Y-66.754
G01 F600 X19.321 Y-66.819
G01 F600 X19.190 Y-66.914
G01 F600 X19.082 Y-67.034
G01 F600 X19.002 Y-67.174
G01 F600 X18.952 Y-67.328
G01 F600 X18.935 Y-67.487
G01 F600 X18.935 Y-69.013
G01 F600 X18.952 Y-69.172
G01 F600 X19.002 Y-69.326
G01 F600 X19.082 Y-69.466
G01 F600 X19.190 Y-69.586
G01 F600 X19.321 Y-69.681
G01 F600 X19.468 Y-69.746
G01 F600 X19.626 Y-69.780
G01 F600 X19.788 Y-69.780
G01 F600 X19.946 Y-69.746
G01 F600 X20.093 Y-69.681
G01 F600 X20.224 Y-69.586
G01 F600 X20.332 Y-69.466
G01 F600 X20.412 Y-69.326
G01 F600 X20.462 Y-69.172
G01 F600 X20.479 Y-69.013
G01 F600 X20.479 Y-67.487
G01 F600 X20.462 Y-67.328
G01 F600 X20.412 Y-67.174
G01 F600 X20.332 Y-67.034
G01 F600 X20.224 Y-66.914
G01 F600 X20.093 Y-66.819
G01 F600 X19.946 Y-66.754
G01 F600 X19.788 Y-66.720
G01 F600 X19.626 Y-66.720
G00 F3000 Z1.000
G00 F3000 X47.566 Y-66.720
G00 F1500 Z0
G01 F600 Z-1.000
G01 F600 X47.408 Y-66.754
G01 F600 X47.261 Y-66.819
G01 F600 X47.130 Y-66.914
G01 F600 X47.022 Y-67.034
G01 F600 X46.942 Y-67.174
G01 F600 X46.892 Y-67.328
G01 F600 X46.875 Y-67.487
G01 F600 X46.875 Y-69.013
G01 F600 X46.892 Y-69.172
G01 F600 X46.942 Y-69.326
G01 F600 X47.022 Y-69.466
G01 F600 X47.130 Y-69.586
G01 F600 X47.261 Y-69.681
G01 F600 X47.408 Y-69.746
G01 F600 X47.566 Y-69.780
G01 F600 X47.728 Y-69.780
G01 F600 X47.886 Y-69.746
G01 F600 X48.033 Y-69.681
G01 F600 X48.163 Y-69.586
G01 F600 X48.272 Y-69.466
G01 F600 X48.352 Y-69.326
G01 F600 X48.402 Y-69.172
G01 F600 X48.419 Y-69.013
G01 F600 X48.419 Y-67.487
G01 F600 X48.402 Y-67.328
G01 F600 X48.352 Y-67.174
G01 F600 X48.272 Y-67.034
G01 F600 X48.163 Y-66.914
G01 F600 X48.033 Y-66.819
G01 F600 X47.886 Y-66.754
G01 F600 X47.728 Y-66.720
G01 F600 X47.566 Y-66.720
G00 F3000 Z1.000
G00 F3000 X17.086 Y-66.720
G00 F1500 Z0
G01 F600 Z-1.000
G01 F600 X16.928 Y-66.754
G01 F600 X16.781 Y-66.819
G01 F600 X16.650 Y-66.914
G01 F600 X16.542 Y-67.034
G01 F600 X16.462 Y-67.174
G01 F600 X16.412 Y-67.328
G01 F600 X16.395 Y-67.487
G01 F600 X16.395 Y-69.013
G01 F600 X16.412 Y-69.172
G01 F600 X16.462 Y-69.326
G01 F600 X16.542 Y-69.466
G01 F600 X16.650 Y-69.586
G01 F600 X16.781 Y-69.681
G01 F600 X16.928 Y-69.746
G01 F600 X17.086 Y-69.780
G01 F600 X17.248 Y-69.780
G01 F600 X17.405 Y-69.746
G01 F600 X17.553 Y-69.681
G01 F600 X17.684 Y-69.586
G01 F600 X17.791 Y-69.466
G01 F600 X17.872 Y-69.326
G01 F600 X17.922 Y-69.172
G01 F600 X17.939 Y-69.013
G01 F600 X17.939 Y-67.487
G01 F600 X17.922 Y-67.328
G01 F600 X17.872 Y-67.174
G01 F600 X17.791 Y-67.034
G01 F600 X17.684 Y-66.914
G01 F600 X17.553 Y-66.819
G01 F600 X17.405 Y-66.754
G01 F600 X17.248 Y-66.720
G01 F600 X17.086 Y-66.720
G00 F3000 Z1.000
G00 F3000 X28.516 Y-66.720
G00 F1500 Z0
G01 F600 Z-1.000
G01 F600 X28.358 Y-66.754
G01 F600 X28.211 Y-66.819
G01 F600 X28.080 Y-66.914
G01 F600 X27.972 Y-67.034
G01 F600 X27.892 Y-67.174
G01 F600 X27.842 Y-67.328
G01 F600 X27.825 Y-67.487
G01 F600 X27.825 Y-69.013
G01 F600 X27.842 Y-69.172
G01 F600 X27.892 Y-69.326
G01 F600 X27.972 Y-69.466
G01 F600 X28.080 Y-69.586
G01 F600 X28.211 Y-69.681
G01 F600 X28.358 Y-69.746
G01 F600 X28.516 Y-69.780
G01 F600 X28.678 Y-69.780
G01 F600 X28.835 Y-69.746
G01 F600 X28.983 Y-69.681
G01 F600 X29.114 Y-69.586
G01 F600 X29.222 Y-69.466
G01 F600 X29.302 Y-69.326
G01 F600 X29.352 Y-69.172
G01 F600 X29.369 Y-69.013
G01 F600 X29.369 Y-67.487
G01 F600 X29.352 Y-67.328
G01 F600 X29.302 Y-67.174
G01 F600 X29.222 Y-67.034
G01 F600 X29.114 Y-66.914
G01 F600 X28.983 Y-66.819
G01 F600 X28.835 Y-66.754
G01 F600 X28.678 Y-66.720
G01 F600 X28.516 Y-66.720
G00 F3000 Z1.000
G00 F3000 X31.056 Y-66.720
G00 F1500 Z0
G01 F600 Z-1.000
G01 F600 X30.898 Y-66.754
G01 F600 X30.751 Y-66.819
G01 F600 X30.620 Y-66.914
G01 F600 X30.512 Y-67.034
G01 F600 X30.432 Y-67.174
G01 F600 X30.382 Y-67.328
G01 F600 X30.365 Y-67.487
G01 F600 X30.365 Y-69.013
G01 F600 X30.382 Y-69.172
G01 F600 X30.432 Y-69.326
G01 F600 X30.512 Y-69.466
G01 F600 X30.620 Y-69.586
G01 F600 X30.751 Y-69.681
G01 F600 X30.898 Y-69.746
G01 F600 X31.056 Y-69.780
G01 F600 X31.218 Y-69.780
G01 F600 X31.376 Y-69.746
G01 F600 X31.523 Y-69.681
G01 F600 X31.654 Y-69.586
G01 F600 X31.762 Y-69.466
G01 F600 X31.842 Y-69.326
G01 F600 X31.892 Y-69.172
G01 F600 X31.909 Y-69.013
G01 F600 X31.909 Y-67.487
G01 F600 X31.892 Y-67.328
G01 F600 X31.842 Y-67.174
G01 F600 X31.762 Y-67.034
G01 F600 X31.654 Y-66.914
G01 F600 X31.523 Y-66.819
G01 F600 X31.376 Y-66.754
G01 F600 X31.218 Y-66.720
G01 F600 X31.056 Y-66.720
G00 F3000 Z1.000
G00 F3000 Z1.000
G00 F3000 X0.000 Y0.000
M05
M30
%